<?xml version='1.0' encoding='UTF-8'?>
<map version="1.10" tiledversion="1.12.2" orientation="orthogonal" renderorder="right-down" width="102" height="38" tilewidth="16" tileheight="16" infinite="0" nextlayerid="11" nextobjectid="44">
 <properties>
  <property name="background_zone" value="zone3" />
  <property name="bgm_track" value="bgm_zone3_boss" />
  <property name="climate" value="clear" />
  <property name="schema_version" value="1"/>
  <property name="author" value="Equipo docente — Legacy of Infest"/>
  <property name="stage_id" value="stage3_4_boss_gavilan" />
  <property name="stage_name" value="El Bungaló" />
  <property name="time_limit" type="int" value="180" />
 </properties>
 <tileset firstgid="1" name="tileset_heredia_interior" tilewidth="16" tileheight="16" tilecount="64" columns="8">
  <image source="../../tilesets/tileset_heredia_interior.png" width="128" height="128" />
 </tileset>
 <tileset firstgid="65" name="tileset_gavilan_ciudad" tilewidth="16" tileheight="16" tilecount="60" columns="8"><image source="../../tilesets/tileset_gavilan_ciudad.png" width="128" height="128" /></tileset><layer id="1" name="BG_Far" width="102" height="38">
  <data encoding="csv">
0,0,0,0,0,0,0,0,0,0,0,0,0,0,0,0,0,0,0,0,0,0,0,0,0,0,0,0,0,0,0,0,0,0,0,0,0,0,0,0,0,0,0,0,0,0,0,0,0,0,0,0,0,0,0,0,0,0,0,0,0,0,0,0,0,0,0,0,0,0,0,0,0,0,0,0,0,0,0,0,0,0,0,0,0,0,0,0,0,0,0,0,0,0,0,0,0,0,0,0,0,0,
0,0,0,0,0,0,0,0,0,0,0,0,0,0,0,0,0,0,0,0,0,0,0,0,0,0,0,0,0,0,0,0,0,0,0,0,0,0,0,0,0,0,0,0,0,0,0,0,0,0,0,0,0,0,0,0,0,0,0,0,0,0,0,0,0,0,0,0,0,0,0,0,0,0,0,0,0,0,0,0,0,0,0,0,0,0,0,0,0,0,0,0,0,0,0,0,0,0,0,0,0,0,
0,0,0,0,0,0,0,0,0,0,0,0,0,0,0,0,0,0,0,0,0,0,0,0,0,0,0,0,0,0,0,0,0,0,0,0,0,0,0,0,0,0,0,0,0,0,0,0,0,0,0,0,0,0,0,0,0,0,0,0,0,0,0,0,0,0,0,0,0,0,0,0,0,0,0,0,0,0,0,0,0,0,0,0,0,0,0,0,0,0,0,0,0,0,0,0,0,0,0,0,0,0,
0,0,0,0,0,0,0,0,0,0,0,0,0,0,0,0,0,0,0,0,0,0,0,0,0,0,0,0,0,0,0,0,0,0,0,0,0,0,0,0,0,0,0,0,0,0,0,0,0,0,0,0,0,0,0,0,0,0,0,0,0,0,0,0,0,0,0,0,0,0,0,0,0,0,0,0,0,0,0,0,0,0,0,0,0,0,0,0,0,0,0,0,0,0,0,0,0,0,0,0,0,0,
0,0,0,0,0,0,0,0,0,0,0,0,0,0,0,0,0,0,0,0,0,0,0,0,0,0,0,0,0,0,0,0,0,0,0,0,0,0,0,0,0,0,0,0,0,0,0,0,0,0,0,0,0,0,0,0,0,0,0,0,0,0,0,0,0,0,0,0,0,0,0,0,0,0,0,0,0,0,0,0,0,0,0,0,0,0,0,0,0,0,0,0,0,0,0,0,0,0,0,0,0,0,
0,0,0,0,0,0,0,0,0,0,0,0,0,0,0,0,0,0,0,0,0,0,0,0,0,0,0,0,0,0,0,0,0,0,0,0,0,0,0,0,0,0,0,0,0,0,0,0,0,0,0,0,0,0,0,0,0,0,0,0,0,0,0,0,0,0,0,0,0,0,0,0,0,0,0,0,0,0,0,0,0,0,0,0,0,0,0,0,0,0,0,0,0,0,0,0,0,0,0,0,0,0,
0,0,0,0,0,0,0,0,0,0,0,0,0,0,0,0,0,0,0,0,0,0,0,0,0,0,0,0,0,0,0,0,0,0,0,0,0,0,0,0,0,0,0,0,0,0,0,0,0,0,0,0,0,0,0,0,0,0,0,0,0,0,0,0,0,0,0,0,0,0,0,0,0,0,0,0,0,0,0,0,0,0,0,0,0,0,0,0,0,0,0,0,0,0,0,0,0,0,0,0,0,0,
0,0,0,0,0,0,0,0,0,0,0,0,0,0,0,0,0,0,0,0,0,0,0,0,0,0,0,0,0,0,0,0,0,0,0,0,0,0,0,0,0,0,0,0,0,0,0,0,0,0,0,0,0,0,0,0,0,0,0,0,0,0,0,0,0,0,0,0,0,0,0,0,0,0,0,0,0,0,0,0,0,0,0,0,0,0,0,0,0,0,0,0,0,0,0,0,0,0,0,0,0,0,
0,0,0,0,0,0,0,0,0,0,0,0,0,0,0,0,0,0,0,0,0,0,0,0,0,0,0,0,0,0,0,0,0,0,0,0,0,0,0,0,0,0,0,0,0,0,0,0,0,0,0,0,0,0,0,0,0,0,0,0,0,0,0,0,0,0,0,0,0,0,0,0,0,0,0,0,0,0,0,0,0,0,0,0,0,0,0,0,0,0,0,0,0,0,0,0,0,0,0,0,0,0,
0,0,0,0,0,0,0,0,0,0,0,85,86,0,0,85,87,85,0,0,0,0,86,86,86,0,0,0,0,0,0,0,0,0,0,0,0,0,0,0,0,0,0,0,0,0,0,0,0,0,0,0,0,0,0,0,0,0,0,0,0,0,0,0,0,0,0,0,0,0,0,0,0,0,0,0,0,0,0,0,0,0,0,0,0,0,0,0,0,0,0,0,0,0,0,85,86,87,0,0,0,0,
0,0,0,87,85,87,0,0,0,0,0,83,81,0,0,81,82,81,0,0,0,0,82,81,81,0,0,0,0,0,85,85,85,86,85,0,0,0,0,0,0,0,0,0,0,0,0,0,0,0,0,0,0,0,0,0,0,0,0,0,0,0,0,0,0,85,85,85,86,85,87,86,85,85,85,87,86,87,85,88,0,0,85,85,85,87,86,87,85,85,85,87,85,85,86,84,81,82,0,0,0,0,
0,0,0,83,81,82,0,0,0,0,0,81,82,0,0,84,83,82,0,0,0,0,82,81,81,0,0,0,0,0,82,81,84,81,81,0,0,0,0,0,0,0,0,0,0,0,0,0,0,0,0,0,0,0,0,0,0,0,0,0,0,0,0,0,0,83,83,84,82,84,81,81,81,81,83,81,81,83,85,86,0,0,81,81,81,81,81,83,82,81,83,81,81,81,84,82,81,84,0,0,0,0,
0,0,0,84,81,82,85,86,85,85,85,81,81,0,0,81,84,86,86,86,86,85,83,81,81,0,0,85,85,86,81,83,84,83,81,85,86,0,0,0,0,0,0,0,0,0,0,0,0,0,0,0,0,0,0,0,0,0,0,0,0,0,0,0,0,83,82,82,81,81,84,82,81,82,81,82,81,83,83,81,0,0,84,83,81,82,81,81,83,81,81,84,82,83,83,81,82,81,0,0,0,0,
0,0,0,81,81,81,81,83,81,81,81,81,83,0,0,83,81,81,81,83,82,82,81,81,81,0,0,81,81,83,81,82,83,83,82,82,83,0,0,0,0,0,0,0,0,0,0,0,0,0,0,0,0,0,0,0,0,0,0,0,0,0,0,0,0,83,83,82,83,84,82,82,83,81,84,81,83,84,81,83,0,0,81,81,83,82,81,84,81,81,83,81,81,83,82,81,82,81,0,0,0,0,
0,0,0,84,84,81,82,83,81,81,83,83,81,0,0,82,81,83,81,84,81,83,81,81,83,0,0,81,82,81,81,83,81,84,81,82,82,0,0,0,0,0,0,81,81,83,83,84,81,81,81,83,83,83,81,83,83,81,81,81,0,0,0,0,0,81,81,81,83,81,82,81,81,83,81,84,81,81,81,84,0,0,82,81,81,82,83,83,82,81,81,83,83,81,84,81,81,82,0,0,0,0,
0,0,0,81,83,81,81,81,81,81,81,83,81,0,0,81,81,81,81,81,81,82,81,83,81,0,0,84,81,81,84,81,81,81,81,82,81,0,0,0,0,0,0,81,81,82,84,82,84,81,81,81,81,83,81,82,83,81,83,81,0,0,0,0,0,83,81,81,82,81,84,81,81,81,83,81,83,81,83,81,0,0,81,84,81,81,82,81,82,84,81,82,81,81,83,84,81,81,0,0,0,0,
0,0,0,81,81,82,83,83,83,81,81,81,81,0,0,84,83,81,83,81,82,81,83,83,81,0,0,81,81,84,82,83,81,81,81,82,84,0,0,0,0,0,0,81,81,81,81,83,84,81,81,81,81,83,82,81,83,81,84,81,0,0,0,0,0,82,81,81,83,83,82,81,84,81,81,81,82,84,81,81,0,0,83,83,83,81,81,81,81,82,83,81,82,82,82,82,83,81,0,0,0,0,
0,0,0,84,81,81,83,82,81,81,84,82,82,0,0,82,82,84,84,81,81,84,81,81,83,0,0,83,84,82,82,81,82,81,81,81,81,0,0,0,0,0,0,83,83,81,83,81,82,83,82,84,82,83,84,82,82,81,81,82,0,0,0,0,0,83,82,83,82,82,81,81,83,81,81,81,84,82,81,81,0,0,83,82,82,81,84,82,83,81,83,84,81,83,81,81,81,81,0,0,0,0,
0,0,0,84,83,83,84,82,82,81,82,81,84,0,0,82,81,82,81,81,81,81,83,81,83,0,0,81,83,83,82,81,83,81,81,81,81,0,0,0,0,0,0,82,82,82,81,81,82,82,82,81,82,81,84,81,83,82,82,81,0,0,0,0,0,83,82,82,82,82,82,84,83,81,83,83,81,84,81,81,0,0,83,83,81,81,81,82,81,82,82,83,81,81,81,81,81,83,0,0,0,0,
0,0,0,84,83,83,81,82,81,81,82,84,83,0,0,83,83,81,83,81,81,81,82,81,81,0,0,81,81,83,81,81,81,83,81,83,83,0,0,0,0,0,0,82,82,81,83,84,81,81,82,81,84,82,83,83,82,81,81,81,0,0,0,0,0,84,81,83,81,81,81,81,81,83,83,82,82,81,81,82,0,0,81,82,82,82,84,83,81,84,83,83,82,82,81,83,81,81,0,0,0,0,
0,0,0,82,84,81,81,82,82,82,81,81,82,0,0,83,83,82,83,84,81,81,81,81,81,0,0,81,82,81,81,81,82,81,84,83,81,0,0,0,0,0,0,81,83,81,81,83,82,81,81,82,83,82,83,81,82,81,81,81,0,0,0,0,0,82,83,81,81,83,81,81,81,81,81,82,84,82,82,81,0,0,83,83,81,82,84,84,81,81,81,81,82,83,82,81,81,83,0,0,0,0,
0,0,0,83,84,84,82,81,81,81,81,84,82,0,0,82,81,81,83,82,81,81,84,82,82,0,0,81,81,83,83,81,81,82,83,81,81,0,0,0,0,0,0,81,81,81,81,81,83,81,83,83,83,81,81,82,83,83,82,82,0,0,0,0,0,81,83,82,81,82,81,83,84,81,82,81,83,81,84,81,0,0,81,81,83,81,81,84,81,83,81,83,81,83,83,81,82,81,0,0,0,0,
0,0,0,81,82,81,84,81,82,81,81,81,82,0,0,81,84,82,81,81,83,81,84,84,81,0,0,81,82,83,81,81,84,82,81,81,83,0,0,0,0,0,0,82,83,82,83,81,83,81,82,83,81,81,81,81,81,81,81,83,0,0,0,0,0,81,81,81,84,83,84,83,82,81,81,82,81,82,82,81,0,0,82,81,81,81,81,82,81,83,81,81,81,81,83,81,83,84,0,0,0,0,
0,0,0,84,82,81,81,84,81,82,82,84,82,0,0,81,81,81,81,84,82,82,81,81,81,0,0,83,82,81,82,81,81,82,81,83,84,0,0,0,0,0,0,81,83,82,84,81,81,84,81,83,84,83,83,81,81,82,84,83,0,0,0,0,0,82,84,81,81,81,81,83,81,81,83,83,81,81,81,83,0,0,81,82,83,82,81,83,83,84,82,84,81,83,82,83,81,82,0,0,0,0,
0,0,0,83,81,81,81,81,81,83,81,82,81,0,0,81,82,83,82,82,81,81,82,83,81,0,0,83,84,82,81,81,81,82,83,81,83,0,0,0,0,0,0,82,83,81,83,81,84,83,82,83,81,84,82,82,81,83,83,81,0,0,0,0,0,82,83,83,81,84,81,82,82,81,82,81,83,81,83,82,0,0,82,82,82,81,83,81,82,81,83,81,81,83,81,81,83,81,0,0,0,0,
0,0,0,83,81,81,82,82,81,83,83,83,81,0,0,81,82,83,82,81,81,82,81,81,81,0,0,84,83,81,82,81,83,81,81,84,82,0,0,0,0,0,0,83,84,82,82,84,82,84,83,81,81,82,81,82,83,81,83,81,0,0,0,0,0,81,84,82,83,81,81,82,83,83,82,83,82,82,81,81,0,0,81,81,81,83,84,83,83,81,83,81,84,83,81,82,82,83,0,0,0,0,
0,0,0,81,81,82,83,81,83,81,83,82,81,0,0,81,84,84,81,81,82,81,81,82,81,0,0,82,82,82,83,83,81,84,83,82,81,0,0,0,0,0,0,81,83,81,81,81,81,81,84,83,81,83,81,81,84,81,84,81,0,0,0,0,0,83,82,84,83,82,81,84,81,82,82,81,82,81,82,82,0,0,81,81,83,82,81,82,83,83,84,82,81,83,83,81,81,82,0,0,0,0,
0,0,0,84,84,83,83,81,83,84,83,81,81,0,0,83,81,81,82,81,84,82,81,81,81,0,0,81,82,83,83,82,84,83,81,82,81,0,0,0,0,0,0,82,81,82,81,81,82,81,84,81,82,81,84,83,83,83,83,82,0,0,0,0,0,83,81,83,82,81,83,81,81,81,81,82,81,83,81,83,0,0,81,83,81,81,81,81,81,81,81,82,81,81,81,82,81,81,0,0,0,0,
0,0,0,83,83,82,81,81,83,82,81,81,81,0,0,81,81,83,84,81,81,82,84,82,83,0,0,81,81,83,81,81,82,81,83,83,81,0,0,0,0,0,0,84,81,84,81,82,82,81,81,82,84,83,81,81,81,81,82,83,0,0,0,0,0,81,84,83,82,84,81,81,81,81,82,81,81,83,83,81,0,0,81,81,81,81,81,83,81,81,84,81,83,84,81,81,82,83,0,0,0,0,
0,0,0,82,83,81,81,81,81,82,81,84,83,0,0,83,81,81,81,83,82,82,82,81,82,0,0,81,81,82,81,82,81,81,81,81,81,0,0,0,0,0,0,82,81,84,81,83,83,83,82,83,81,81,81,81,81,83,84,84,0,0,0,0,0,81,84,81,84,81,81,81,82,83,82,82,82,81,82,81,0,0,84,83,81,81,82,81,81,82,81,82,81,81,82,81,82,84,0,0,0,0,
0,0,0,83,81,81,82,81,83,81,81,81,81,0,0,82,81,83,81,81,81,82,81,81,82,0,0,84,81,82,82,81,82,81,81,82,81,0,0,0,0,0,0,0,0,0,0,0,0,0,0,0,0,0,0,0,0,0,0,0,0,0,0,0,0,81,84,82,81,81,81,84,83,82,81,81,83,81,81,81,0,0,81,83,83,83,81,83,81,82,81,83,83,81,81,81,81,81,0,0,0,0,
0,0,0,0,0,0,0,0,0,0,0,0,0,0,0,0,0,0,0,0,0,0,0,0,0,0,0,0,0,0,0,0,0,0,0,0,0,0,0,0,0,0,0,0,0,0,0,0,0,0,0,0,0,0,0,0,0,0,0,0,0,0,0,0,0,0,0,0,0,0,0,0,0,0,0,0,0,0,0,0,0,0,0,0,0,0,0,0,0,0,0,0,0,0,0,0,0,0,0,0,0,0,
0,0,0,0,0,0,0,0,0,0,0,0,0,0,0,0,0,0,0,0,0,0,0,0,0,0,0,0,0,0,0,0,0,0,0,0,0,0,0,0,0,0,0,0,0,0,0,0,0,0,0,0,0,0,0,0,0,0,0,0,0,0,0,0,0,0,0,0,0,0,0,0,0,0,0,0,0,0,0,0,0,0,0,0,0,0,0,0,0,0,0,0,0,0,0,0,0,0,0,0,0,0,
0,0,0,0,0,0,0,0,0,0,0,0,0,0,0,0,0,0,0,0,0,0,0,0,0,0,0,0,0,0,0,0,0,0,0,0,0,0,0,0,0,0,0,0,0,0,0,0,0,0,0,0,0,0,0,0,0,0,0,0,0,0,0,0,0,0,0,0,0,0,0,0,0,0,0,0,0,0,0,0,0,0,0,0,0,0,0,0,0,0,0,0,0,0,0,0,0,0,0,0,0,0,
0,0,0,0,0,0,0,0,0,0,0,0,0,0,0,0,0,0,0,0,0,0,0,0,0,0,0,0,0,0,0,0,0,0,0,0,0,0,0,0,0,0,0,0,0,0,0,0,0,0,0,0,0,0,0,0,0,0,0,0,0,0,0,0,0,0,0,0,0,0,0,0,0,0,0,0,0,0,0,0,0,0,0,0,0,0,0,0,0,0,0,0,0,0,0,0,0,0,0,0,0,0,
0,0,0,0,0,0,0,0,0,0,0,0,0,0,0,0,0,0,0,0,0,0,0,0,0,0,0,0,0,0,0,0,0,0,0,0,0,0,0,0,0,0,0,0,0,0,0,0,0,0,0,0,0,0,0,0,0,0,0,0,0,0,0,0,0,0,0,0,0,0,0,0,0,0,0,0,0,0,0,0,0,0,0,0,0,0,0,0,0,0,0,0,0,0,0,0,0,0,0,0,0,0,
0,0,0,0,0,0,0,0,0,0,0,0,0,0,0,0,0,0,0,0,0,0,0,0,0,0,0,0,0,0,0,0,0,0,0,0,0,0,0,0,0,0,0,0,0,0,0,0,0,0,0,0,0,0,0,0,0,0,0,0,0,0,0,0,0,0,0,0,0,0,0,0,0,0,0,0,0,0,0,0,0,0,0,0,0,0,0,0,0,0,0,0,0,0,0,0,0,0,0,0,0,0,
0,0,0,0,0,0,0,0,0,0,0,0,0,0,0,0,0,0,0,0,0,0,0,0,0,0,0,0,0,0,0,0,0,0,0,0,0,0,0,0,0,0,0,0,0,0,0,0,0,0,0,0,0,0,0,0,0,0,0,0,0,0,0,0,0,0,0,0,0,0,0,0,0,0,0,0,0,0,0,0,0,0,0,0,0,0,0,0,0,0,0,0,0,0,0,0,0,0,0,0,0,0
</data>
 </layer>
 <layer id="3" name="BG_Mid" width="102" height="38">
  <data encoding="csv">
0,0,0,0,0,0,0,0,0,0,0,0,0,0,0,0,0,0,0,0,0,0,0,0,0,0,0,0,0,0,0,0,0,0,0,0,0,0,0,0,0,0,0,0,0,0,0,0,0,0,0,0,0,0,0,0,0,0,0,0,0,0,0,0,0,0,0,0,0,0,0,0,0,0,0,0,0,0,0,0,0,0,0,0,0,0,0,0,0,0,0,0,0,0,0,0,0,0,0,0,0,0,
0,0,0,0,0,0,0,0,0,0,0,0,0,0,0,0,0,0,0,0,0,0,0,0,0,0,0,0,0,0,0,0,0,0,0,0,0,0,0,0,0,0,0,0,0,0,0,0,0,0,0,0,0,0,0,0,0,0,0,0,0,0,0,0,0,0,0,0,0,0,0,0,0,0,0,0,0,0,0,0,0,0,0,0,0,0,0,0,0,0,0,0,0,0,0,0,0,0,0,0,0,0,
0,0,0,0,0,0,0,0,0,0,0,0,0,0,0,0,0,0,0,0,0,0,0,0,0,0,0,0,0,0,0,0,0,0,0,0,0,0,0,0,0,0,0,0,0,0,0,0,0,0,0,0,0,0,0,0,0,0,0,0,0,0,0,0,0,0,0,0,0,0,0,0,0,0,0,0,0,0,0,0,0,0,0,0,0,0,0,0,0,0,0,0,0,0,0,0,0,0,0,0,0,0,
0,0,0,0,0,0,0,0,0,0,0,0,0,0,0,0,0,0,0,0,0,0,0,0,0,0,0,0,0,0,0,0,0,0,0,0,0,0,0,0,0,0,0,0,0,0,0,0,0,0,0,0,0,0,0,0,0,0,0,0,0,0,0,0,0,0,0,0,0,0,0,0,0,0,0,0,0,0,0,0,0,0,0,0,0,0,0,0,0,0,0,0,0,0,0,0,0,0,0,0,0,0,
0,0,0,0,0,0,0,0,0,0,0,0,0,0,0,0,0,0,0,0,0,0,0,0,0,0,0,0,0,0,0,0,0,0,0,0,0,0,0,0,0,0,0,0,0,0,0,0,0,0,0,0,0,0,0,0,0,0,0,0,0,0,0,0,0,0,0,0,0,0,0,0,0,0,0,0,0,0,0,0,0,0,0,0,0,0,0,0,0,0,0,0,0,0,0,0,0,0,0,0,0,0,
0,0,0,0,0,0,0,0,0,0,0,0,0,0,0,0,0,0,0,0,0,0,0,0,0,0,0,0,0,0,0,0,0,0,0,0,0,0,0,0,0,0,0,0,0,0,0,0,0,0,0,0,0,0,0,0,0,0,0,0,0,0,0,0,0,0,0,0,0,0,0,0,0,0,0,0,0,0,0,0,0,0,0,0,0,0,0,0,0,0,0,0,0,0,0,0,0,0,0,0,0,0,
0,0,0,0,0,0,0,0,0,0,0,0,0,0,0,0,0,0,0,0,0,0,0,0,0,0,0,0,0,0,0,0,0,0,0,0,0,0,0,0,0,0,0,0,0,0,0,0,0,0,0,0,0,0,0,0,0,0,0,0,0,0,0,0,0,0,0,0,0,0,0,0,0,0,0,0,0,0,0,0,0,0,0,0,0,0,0,0,0,0,0,0,0,0,0,0,0,0,0,0,0,0,
0,0,0,0,0,0,0,0,0,0,0,0,0,0,0,0,0,0,0,0,0,0,0,0,0,0,0,0,0,0,0,0,0,0,0,0,0,0,0,0,0,0,0,0,0,0,0,0,0,0,0,0,0,0,0,0,0,0,0,0,0,0,0,0,0,0,0,0,0,0,0,0,0,0,0,0,0,0,0,0,0,0,0,0,0,0,0,0,0,0,0,0,0,0,0,0,0,0,0,0,0,0,
0,0,0,0,0,0,0,0,0,0,0,0,0,0,0,0,0,0,0,0,0,0,0,0,0,0,0,0,0,0,0,0,0,0,0,0,0,0,0,0,0,0,0,0,0,0,0,0,0,0,0,0,0,0,0,0,0,0,0,0,0,0,0,0,0,0,0,0,0,0,0,0,0,0,0,0,0,0,0,0,0,0,0,0,0,0,0,0,0,0,0,0,0,0,0,0,0,0,0,0,0,0,
0,0,0,0,0,0,0,0,0,0,0,0,0,0,0,0,0,0,0,0,0,0,0,0,0,0,0,0,0,0,0,0,0,0,0,0,0,0,0,0,0,0,0,0,0,0,0,0,0,0,0,0,0,0,0,0,0,0,0,0,0,0,0,0,0,0,0,0,0,0,0,0,0,0,0,0,0,0,0,0,0,0,0,0,0,0,0,0,0,0,0,0,0,0,0,0,0,0,0,0,0,0,
0,0,0,0,0,0,0,0,0,0,0,0,0,0,0,0,0,0,0,0,0,0,0,0,0,0,0,0,0,0,0,0,0,0,0,0,0,0,0,0,0,0,0,0,0,0,0,0,0,0,0,0,0,0,0,0,0,0,0,0,0,0,0,0,0,0,0,0,0,0,0,0,0,0,0,0,0,0,0,0,0,0,0,0,0,0,0,0,0,0,0,0,0,0,0,0,0,0,0,0,0,0,
0,0,0,0,0,0,0,0,0,0,0,0,0,0,0,0,0,0,0,0,0,0,0,0,0,0,0,0,0,0,0,0,0,0,0,0,0,0,0,0,0,0,0,0,0,0,0,0,0,0,0,0,0,0,0,0,0,0,0,0,0,0,0,0,0,0,0,0,0,0,0,0,0,0,0,0,0,0,0,0,0,0,0,0,0,0,0,0,0,0,0,0,0,0,0,0,0,0,0,0,0,0,
0,0,0,0,96,0,0,0,0,0,0,0,0,0,0,0,0,0,0,0,0,0,0,0,0,0,0,0,0,0,0,0,0,0,0,0,0,0,0,0,0,0,0,0,0,0,0,0,0,0,0,0,0,0,0,0,0,0,0,0,0,0,0,0,0,0,0,0,0,0,0,0,0,0,0,0,0,0,0,0,0,0,0,96,0,0,0,0,0,0,0,0,0,0,0,0,0,0,0,0,0,0,
0,0,0,93,93,94,93,93,94,93,96,0,0,0,0,0,0,0,0,0,0,0,96,0,0,0,0,0,0,0,0,0,0,0,0,0,0,0,0,0,0,0,0,0,0,0,0,0,0,0,0,0,0,0,0,0,0,0,0,0,0,0,0,0,0,0,0,0,0,0,0,0,0,0,0,0,0,0,0,0,0,0,94,93,93,94,94,0,0,0,0,0,0,0,0,0,0,0,0,0,0,0,
0,0,0,89,89,90,91,91,91,95,93,95,93,0,0,0,0,0,0,0,0,93,93,94,93,0,0,0,0,0,0,0,0,0,0,0,0,0,0,0,0,0,0,89,91,91,91,93,93,93,94,93,93,93,0,0,0,0,0,0,0,0,0,0,0,0,0,0,0,0,0,0,0,0,0,0,0,0,0,0,0,0,91,90,91,90,93,94,93,94,93,0,0,0,0,96,0,0,0,0,0,0,
0,0,0,89,91,92,89,91,89,89,89,90,92,0,0,0,0,0,0,0,0,89,89,91,91,0,0,0,96,0,0,0,0,0,0,0,0,0,0,0,0,0,0,90,90,91,91,90,89,91,89,90,89,89,94,95,93,93,94,93,0,0,0,0,0,0,0,0,0,0,0,0,0,0,0,0,0,0,0,0,0,0,91,89,89,92,89,89,90,92,90,96,0,0,95,93,93,94,0,0,0,0,
0,0,0,91,92,91,89,91,91,89,89,89,89,0,0,0,0,0,0,0,0,89,89,89,89,0,0,95,94,93,94,94,95,93,93,0,96,0,0,0,0,0,0,89,91,91,92,91,89,89,89,89,91,91,92,89,92,92,91,89,0,0,0,0,0,95,93,93,93,93,93,94,96,0,0,0,0,0,96,0,0,0,92,89,89,91,89,89,92,91,94,94,94,93,91,91,89,91,0,0,0,0,
0,0,0,91,91,89,92,89,89,89,89,89,89,0,0,94,93,93,93,94,93,91,89,90,89,0,0,90,90,89,90,92,91,89,91,95,93,0,0,0,0,0,0,89,91,91,89,89,91,92,90,89,90,89,89,89,92,90,91,90,0,0,0,0,0,91,92,89,89,89,91,93,93,93,93,93,93,93,94,93,0,0,89,89,90,91,92,91,92,89,90,91,91,91,91,91,90,91,0,0,0,0,
0,0,0,89,91,89,91,89,90,89,90,91,89,0,0,89,90,91,91,89,89,91,91,91,91,0,0,89,92,89,92,89,91,91,89,89,90,0,0,0,0,0,0,90,89,89,90,92,91,89,89,91,89,91,91,91,91,92,89,91,0,0,0,0,0,89,89,89,89,92,91,89,89,92,89,92,90,91,90,90,0,0,91,91,89,91,91,92,89,89,89,92,89,90,90,89,90,92,0,0,0,0,
0,0,0,90,91,91,91,91,89,91,92,89,89,0,0,92,89,92,89,91,92,89,91,89,89,0,0,92,92,91,89,91,89,91,89,91,89,0,0,0,0,0,0,89,90,91,89,89,89,90,91,91,89,91,89,89,89,89,90,92,0,0,0,0,0,89,91,92,91,89,89,90,89,89,89,90,91,91,91,90,0,0,90,91,90,89,89,91,91,89,89,89,91,89,91,90,91,91,0,0,0,0,
0,0,0,90,91,89,89,103,101,101,101,101,102,0,0,92,90,89,91,89,89,101,101,101,101,0,0,102,102,101,101,101,92,91,91,92,89,0,0,0,0,0,0,89,89,91,90,90,92,89,92,90,103,103,101,101,102,89,92,89,0,0,0,0,0,89,90,90,89,91,89,89,92,89,92,89,91,89,89,89,0,0,91,91,89,91,90,90,102,101,101,101,101,101,102,104,92,91,0,0,0,0,
0,0,0,90,91,91,91,97,100,97,100,97,100,0,0,91,92,92,90,89,89,99,100,99,99,0,0,97,97,99,97,99,90,90,91,92,89,0,0,0,0,0,0,89,89,91,89,91,89,89,89,91,100,100,98,100,97,104,91,89,0,0,0,0,0,89,104,91,91,91,91,89,89,89,89,91,92,90,91,89,0,0,91,104,92,89,90,90,99,99,99,98,97,99,102,101,103,101,0,0,0,0,
0,0,0,89,89,92,92,97,99,99,100,97,100,0,0,91,104,89,89,89,92,99,100,100,97,0,0,99,100,99,97,99,89,92,91,91,89,0,0,0,0,0,0,89,91,89,90,91,90,89,91,91,98,99,97,99,101,101,103,101,0,0,0,0,0,101,102,101,101,102,101,101,102,101,101,101,101,101,102,102,0,0,101,102,101,103,103,101,99,97,97,99,100,97,99,100,97,100,0,0,0,0,
0,0,0,89,104,91,91,100,99,97,100,97,97,0,0,102,101,101,101,101,103,100,97,99,99,0,0,97,97,99,99,100,104,91,90,90,89,0,0,0,0,0,0,101,101,102,101,101,101,101,101,101,98,99,100,100,97,99,99,100,0,0,0,0,0,97,99,98,99,97,99,99,97,97,98,97,99,100,100,99,0,0,99,99,97,99,100,99,97,100,98,99,97,100,98,99,99,97,0,0,0,0,
0,0,0,102,103,101,101,100,97,97,100,97,99,0,0,100,99,99,98,97,97,99,97,99,99,0,0,99,99,98,97,101,103,101,102,101,101,0,0,0,0,0,0,100,97,99,99,100,97,97,97,97,99,97,99,99,100,100,99,98,0,0,0,0,0,97,97,97,99,97,99,98,100,97,97,99,97,99,98,102,0,0,100,97,100,98,97,100,100,100,99,99,97,99,97,97,100,97,0,0,0,0,
0,0,0,97,100,100,100,99,98,98,97,98,97,0,0,98,99,98,97,99,97,97,99,98,99,0,0,97,99,99,100,97,98,99,100,97,100,0,0,0,0,0,0,97,99,99,97,98,97,100,98,99,98,100,98,99,99,100,98,97,0,0,0,0,0,97,100,100,97,99,99,99,99,97,99,97,99,99,98,100,0,0,97,99,97,99,97,99,100,97,99,97,100,98,97,97,97,97,0,0,0,0,
0,0,0,97,97,98,99,97,97,98,97,100,97,0,0,97,100,97,99,99,97,97,99,100,99,0,0,97,99,99,99,100,100,97,97,99,99,0,0,0,0,0,0,98,100,98,99,99,99,100,97,100,100,99,99,97,99,98,97,97,0,0,0,0,0,98,97,97,97,98,99,99,99,99,100,100,97,99,97,97,0,0,97,97,97,98,97,97,98,99,97,99,99,100,99,97,98,99,0,0,0,0,
0,0,0,97,97,97,100,99,98,100,97,100,99,0,0,99,98,100,99,97,98,97,99,100,97,0,0,97,99,99,99,97,98,99,97,97,97,0,0,0,0,0,0,99,99,99,97,100,99,99,98,100,97,97,98,99,98,98,97,97,0,0,0,0,0,100,100,99,99,100,100,100,99,97,99,97,98,100,99,100,0,0,100,99,100,98,98,97,98,99,97,99,97,100,97,97,99,99,0,0,0,0,
0,0,0,99,97,97,99,97,100,99,100,99,100,0,0,99,99,100,100,98,97,97,97,98,98,0,0,100,99,98,97,97,99,97,97,97,100,0,0,0,0,0,0,99,100,100,99,97,99,99,97,97,97,98,98,99,99,97,97,98,0,0,0,0,0,99,99,97,97,97,100,98,99,99,97,99,100,99,98,99,0,0,99,97,100,97,97,98,99,100,99,100,98,99,97,100,99,98,0,0,0,0,
0,0,0,97,99,99,100,97,99,97,97,100,100,0,0,97,97,100,97,97,97,98,97,98,98,0,0,97,97,99,99,99,99,99,100,97,99,0,0,0,0,0,0,99,99,98,98,99,100,97,99,99,97,98,97,99,100,98,99,97,0,0,0,0,0,99,100,99,97,98,99,99,99,97,100,97,97,97,97,97,0,0,99,97,97,99,97,97,99,98,99,100,100,100,100,97,97,100,0,0,0,0,
0,0,0,97,100,100,97,97,99,99,97,97,97,0,0,97,99,97,99,99,97,99,97,97,99,0,0,100,97,97,98,97,99,99,99,98,99,0,0,0,0,0,0,0,0,0,0,0,0,0,0,0,0,0,0,0,0,0,0,0,0,0,0,0,0,100,99,100,98,100,99,99,97,99,100,99,100,100,97,100,0,0,99,97,99,98,97,99,97,100,99,99,97,100,97,99,97,99,0,0,0,0,
0,0,0,0,0,0,0,0,0,0,0,0,0,0,0,0,0,0,0,0,0,0,0,0,0,0,0,0,0,0,0,0,0,0,0,0,0,0,0,0,0,0,0,0,0,0,0,0,0,0,0,0,0,0,0,0,0,0,0,0,0,0,0,0,0,0,0,0,0,0,0,0,0,0,0,0,0,0,0,0,0,0,0,0,0,0,0,0,0,0,0,0,0,0,0,0,0,0,0,0,0,0,
0,0,0,0,0,0,0,0,0,0,0,0,0,0,0,0,0,0,0,0,0,0,0,0,0,0,0,0,0,0,0,0,0,0,0,0,0,0,0,0,0,0,0,0,0,0,0,0,0,0,0,0,0,0,0,0,0,0,0,0,0,0,0,0,0,0,0,0,0,0,0,0,0,0,0,0,0,0,0,0,0,0,0,0,0,0,0,0,0,0,0,0,0,0,0,0,0,0,0,0,0,0,
0,0,0,0,0,0,0,0,0,0,0,0,0,0,0,0,0,0,0,0,0,0,0,0,0,0,0,0,0,0,0,0,0,0,0,0,0,0,0,0,0,0,0,0,0,0,0,0,0,0,0,0,0,0,0,0,0,0,0,0,0,0,0,0,0,0,0,0,0,0,0,0,0,0,0,0,0,0,0,0,0,0,0,0,0,0,0,0,0,0,0,0,0,0,0,0,0,0,0,0,0,0,
0,0,0,0,0,0,0,0,0,0,0,0,0,0,0,0,0,0,0,0,0,0,0,0,0,0,0,0,0,0,0,0,0,0,0,0,0,0,0,0,0,0,0,0,0,0,0,0,0,0,0,0,0,0,0,0,0,0,0,0,0,0,0,0,0,0,0,0,0,0,0,0,0,0,0,0,0,0,0,0,0,0,0,0,0,0,0,0,0,0,0,0,0,0,0,0,0,0,0,0,0,0,
0,0,0,0,0,0,0,0,0,0,0,0,0,0,0,0,0,0,0,0,0,0,0,0,0,0,0,0,0,0,0,0,0,0,0,0,0,0,0,0,0,0,0,0,0,0,0,0,0,0,0,0,0,0,0,0,0,0,0,0,0,0,0,0,0,0,0,0,0,0,0,0,0,0,0,0,0,0,0,0,0,0,0,0,0,0,0,0,0,0,0,0,0,0,0,0,0,0,0,0,0,0,
0,0,0,0,0,0,0,0,0,0,0,0,0,0,0,0,0,0,0,0,0,0,0,0,0,0,0,0,0,0,0,0,0,0,0,0,0,0,0,0,0,0,0,0,0,0,0,0,0,0,0,0,0,0,0,0,0,0,0,0,0,0,0,0,0,0,0,0,0,0,0,0,0,0,0,0,0,0,0,0,0,0,0,0,0,0,0,0,0,0,0,0,0,0,0,0,0,0,0,0,0,0,
0,0,0,0,0,0,0,0,0,0,0,0,0,0,0,0,0,0,0,0,0,0,0,0,0,0,0,0,0,0,0,0,0,0,0,0,0,0,0,0,0,0,0,0,0,0,0,0,0,0,0,0,0,0,0,0,0,0,0,0,0,0,0,0,0,0,0,0,0,0,0,0,0,0,0,0,0,0,0,0,0,0,0,0,0,0,0,0,0,0,0,0,0,0,0,0,0,0,0,0,0,0
</data>
 </layer>
 <layer id="4" name="BG_Near" width="102" height="38">
  <data encoding="csv">
0,0,0,0,0,0,0,0,0,0,0,0,0,0,0,0,0,0,0,0,0,0,0,0,0,0,0,0,0,0,0,0,0,0,0,0,0,0,0,0,0,0,0,0,0,0,0,0,0,0,0,0,0,0,0,0,0,0,0,0,0,0,0,0,0,0,0,0,0,0,0,0,0,0,0,0,0,0,0,0,0,0,0,0,0,0,0,0,0,0,0,0,0,0,0,0,0,0,0,0,0,0,
0,69,69,69,69,69,69,69,69,69,69,69,69,72,69,69,69,69,69,69,69,69,69,69,69,69,72,69,69,69,69,69,69,69,69,69,69,69,69,124,124,124,124,124,124,124,124,124,124,124,124,124,124,124,124,124,124,124,124,124,124,124,124,124,69,72,69,69,69,69,69,69,69,69,69,69,69,69,72,69,69,69,69,69,69,69,69,69,69,69,69,72,69,69,69,69,69,69,69,69,69,0,
0,69,69,69,69,69,69,69,69,69,69,69,69,72,69,69,69,69,69,69,69,69,69,69,69,69,72,69,69,69,69,69,69,69,69,69,69,69,69,124,124,124,124,124,124,124,124,124,124,124,124,124,124,124,124,124,124,124,124,124,124,124,124,124,69,72,69,69,69,69,69,69,69,69,69,69,69,69,72,69,69,69,69,69,69,69,69,69,69,69,69,72,69,69,69,69,69,69,69,69,69,0,
0,69,69,69,69,69,69,69,69,69,69,69,69,72,69,69,69,69,69,69,69,69,69,69,69,69,72,69,69,69,69,69,69,69,69,69,69,69,69,124,124,124,124,124,124,124,124,124,124,124,124,124,124,124,124,124,124,124,124,124,124,124,124,124,69,72,69,69,69,69,69,69,69,69,69,69,69,69,72,69,69,69,69,69,69,69,69,69,69,69,69,72,69,69,69,69,69,69,69,69,69,0,
0,69,69,108,110,110,110,110,110,110,110,110,109,72,69,108,110,110,110,110,110,110,110,110,109,69,72,108,110,110,110,110,110,110,110,110,109,69,69,124,124,124,124,124,124,124,124,124,124,124,124,124,124,124,124,124,124,124,124,124,124,124,124,124,69,108,110,110,110,110,110,110,110,110,110,110,110,110,110,109,69,69,108,110,110,110,110,110,110,110,110,110,110,110,110,110,110,109,69,69,69,0,
0,69,69,108,119,0,0,0,0,0,0,120,109,72,69,108,119,0,0,0,0,0,0,120,109,69,72,108,119,0,0,0,0,0,0,120,109,69,69,124,124,124,124,124,124,124,124,124,124,124,124,124,124,124,124,124,124,124,124,124,124,124,124,124,69,108,119,0,0,0,0,0,0,0,105,0,0,0,120,109,69,69,108,119,0,0,0,0,0,0,0,105,0,0,0,0,120,109,69,69,69,0,
0,69,69,108,119,0,0,0,0,0,0,120,109,72,69,108,119,0,0,0,0,0,0,120,109,69,72,108,119,0,0,0,0,0,0,120,109,69,69,124,124,124,124,124,124,124,124,124,124,124,124,124,124,124,124,124,124,124,124,124,124,124,124,124,69,108,119,0,0,0,0,0,0,0,105,0,0,0,120,109,69,69,108,119,0,0,0,0,0,0,0,105,0,0,0,0,120,109,69,69,69,0,
0,69,69,108,119,112,0,0,0,0,0,120,109,72,69,108,119,112,0,0,0,0,0,120,109,69,72,108,119,112,0,0,0,0,0,120,109,69,69,124,124,124,124,124,124,124,124,124,124,124,124,124,124,124,124,124,124,124,124,124,124,124,124,124,69,108,119,112,0,0,0,0,0,0,105,0,0,0,120,109,69,69,108,119,112,0,0,0,0,0,0,105,0,0,0,0,120,109,69,69,69,0,
0,69,69,108,119,0,112,0,0,0,0,120,109,72,69,108,119,0,112,0,0,0,0,120,109,69,72,108,119,0,112,0,0,0,0,120,109,69,69,124,124,124,124,124,124,124,124,124,124,124,124,124,124,124,124,124,124,124,124,124,124,124,124,124,69,108,119,0,112,0,0,0,0,0,105,0,0,0,120,109,69,69,108,119,0,112,0,0,0,0,0,105,0,0,0,0,120,109,69,69,69,0,
0,69,69,108,119,0,0,112,0,0,0,120,109,72,69,108,119,0,0,112,0,0,0,120,109,69,72,108,119,0,0,112,0,0,0,120,109,69,69,0,0,124,124,124,124,124,124,124,124,124,124,124,124,124,124,124,124,124,124,124,124,124,0,0,69,108,119,0,0,112,0,0,0,0,105,0,0,0,120,109,69,69,108,119,0,0,112,0,0,0,0,105,0,0,0,0,120,109,69,69,69,0,
0,69,69,108,119,0,0,0,112,0,0,120,109,72,69,108,119,0,0,0,112,0,0,120,109,69,72,108,119,0,0,0,112,0,0,120,109,69,69,124,0,124,124,124,124,124,124,124,124,124,124,124,124,124,124,124,124,124,124,124,124,124,0,124,69,108,119,0,0,0,112,0,0,0,105,0,0,0,120,109,69,69,108,119,0,0,0,112,0,0,0,105,0,0,0,0,120,109,69,69,69,0,
0,69,69,108,119,0,0,0,0,112,0,120,109,72,69,108,119,0,0,0,0,112,0,120,109,69,72,108,119,0,0,0,0,112,0,120,109,69,69,124,0,0,0,0,0,0,0,0,0,0,0,0,0,0,0,0,0,0,0,0,0,0,0,124,69,108,119,0,0,0,0,112,0,0,105,0,0,0,120,109,69,69,108,119,0,0,0,0,112,0,0,105,0,0,0,0,120,109,69,69,69,0,
0,69,69,108,119,0,0,0,0,0,112,120,109,72,69,108,119,0,0,0,0,0,112,120,109,0,0,108,119,0,0,0,0,0,112,120,109,69,69,124,124,0,124,124,124,124,124,124,124,124,124,124,124,124,124,124,124,124,124,124,124,0,124,124,69,108,119,0,0,0,0,0,112,0,105,0,0,0,120,109,69,69,108,119,0,0,0,0,0,112,0,105,0,0,0,0,120,109,69,69,69,0,
0,69,69,108,119,0,0,0,0,0,0,112,109,72,69,108,119,0,0,0,0,0,0,112,109,69,72,108,119,0,0,0,0,0,0,112,109,69,69,124,124,0,124,124,124,124,124,124,124,124,124,124,124,124,124,124,124,124,124,124,124,0,124,124,69,108,119,0,0,0,0,0,0,112,105,0,0,0,120,109,69,69,108,119,0,0,0,0,0,0,112,105,0,0,0,0,120,109,69,69,69,0,
0,69,69,108,119,0,0,0,0,0,0,120,109,72,69,108,119,0,0,0,0,0,0,120,109,69,72,108,119,0,0,0,0,0,0,120,109,69,69,124,124,0,124,108,110,110,110,110,110,110,110,110,110,110,110,110,110,110,110,109,124,0,124,124,69,108,119,0,0,0,0,0,0,0,105,0,0,0,120,109,69,69,108,119,0,0,0,0,0,0,0,105,0,0,0,0,120,109,69,69,69,0,
0,69,69,108,119,0,0,0,0,0,0,120,109,72,69,108,119,0,0,0,0,0,0,120,109,69,72,108,119,0,0,0,0,0,0,120,109,69,69,124,124,0,124,108,119,0,0,0,0,0,0,0,105,0,0,0,0,0,120,109,124,0,124,124,69,108,119,0,0,0,0,0,0,0,105,112,0,0,120,109,69,69,108,119,0,0,0,0,0,0,0,105,112,0,0,0,120,109,69,69,69,0,
0,69,69,108,119,0,0,0,0,0,0,120,109,0,0,108,119,0,0,0,0,0,0,120,109,0,0,108,119,0,0,0,0,0,0,120,109,69,69,124,124,0,124,108,119,0,0,0,0,0,0,0,105,0,0,0,0,0,120,109,124,0,124,124,69,108,119,0,0,0,0,0,0,0,105,0,0,0,120,109,69,69,108,119,0,0,0,0,0,0,0,105,0,0,0,0,120,109,69,69,69,0,
0,69,69,108,106,106,106,106,106,106,106,106,109,72,69,108,106,106,106,106,106,106,106,106,109,69,72,108,106,106,106,106,106,106,106,106,109,69,69,124,124,0,124,108,119,112,0,0,0,0,0,0,105,0,0,0,0,0,120,109,124,0,124,124,69,108,106,106,106,106,106,106,106,106,107,106,106,106,106,109,69,69,108,106,106,106,106,106,106,106,106,107,106,106,106,106,106,109,69,69,69,0,
0,69,69,108,119,0,0,0,0,0,0,120,109,72,69,108,119,0,0,0,0,0,0,120,109,69,72,108,119,0,0,0,0,0,0,120,109,69,69,124,124,0,124,108,119,0,112,0,0,0,0,0,105,0,0,0,0,0,120,109,124,0,124,124,69,108,119,0,0,0,0,0,0,0,105,0,0,0,120,109,69,69,108,119,0,0,0,0,0,0,0,105,0,0,0,0,120,109,69,69,69,0,
0,69,69,108,119,0,0,0,0,0,0,120,109,72,69,108,119,0,0,0,0,0,0,120,109,69,72,108,119,0,0,0,0,0,0,120,109,69,69,124,124,0,124,108,119,0,0,112,0,0,0,0,105,0,0,0,0,0,120,109,124,0,124,124,69,108,119,0,0,0,0,0,0,0,105,0,0,0,120,109,69,69,108,119,0,0,0,0,0,0,0,105,0,0,0,0,120,109,69,69,69,0,
0,69,69,108,119,0,0,0,0,0,0,120,109,72,69,108,119,0,0,0,0,0,0,120,109,69,72,108,119,0,0,0,0,0,0,120,109,69,69,124,124,0,124,108,119,0,0,0,112,0,0,0,105,0,0,0,0,0,120,109,124,0,124,124,69,108,119,0,0,0,0,0,0,0,105,0,0,0,120,109,69,69,108,119,0,0,0,0,0,0,0,105,0,0,0,0,120,109,69,69,69,0,
0,69,69,108,119,0,0,0,0,0,0,120,109,72,69,108,119,0,0,0,0,0,0,120,109,69,72,108,119,0,0,0,0,0,0,120,109,69,69,124,124,0,124,108,119,0,0,0,0,112,0,0,105,0,0,0,0,0,120,109,124,0,124,124,69,108,119,0,0,0,0,0,0,0,105,0,0,0,120,109,69,69,108,119,0,0,0,0,0,0,0,105,0,0,0,0,120,109,69,69,69,0,
0,69,69,108,119,0,0,0,0,0,0,120,109,72,69,108,119,0,0,0,0,0,0,120,109,69,72,108,119,0,0,0,0,0,0,120,109,69,69,124,124,0,124,108,119,0,0,0,0,0,112,0,105,0,0,0,0,0,120,109,124,0,124,124,69,108,119,0,0,0,0,0,0,0,105,0,0,0,120,109,69,69,108,119,0,0,0,0,0,0,0,105,0,0,0,0,120,109,69,69,69,0,
0,69,69,108,119,0,0,0,0,0,0,120,109,72,69,108,119,0,0,0,0,0,0,120,109,69,72,108,119,0,0,0,0,0,0,120,109,69,69,124,124,0,124,108,119,0,0,0,0,0,0,112,105,0,0,0,0,0,120,109,124,0,124,124,69,108,119,0,0,0,0,0,0,0,105,0,0,0,120,109,69,69,108,119,0,0,0,0,0,0,0,105,0,0,0,0,120,109,69,69,69,0,
0,69,69,108,119,0,0,0,0,0,0,120,109,72,69,108,119,0,0,0,0,0,0,120,109,69,72,108,119,0,0,0,0,0,0,120,109,69,69,124,124,0,124,108,119,0,0,0,0,0,0,0,105,0,0,0,0,0,120,109,124,0,124,124,69,108,119,0,0,0,0,0,0,0,105,0,0,0,120,109,69,69,108,119,0,0,0,0,0,0,0,105,0,0,0,0,120,109,69,69,69,0,
0,69,69,108,119,0,0,0,0,0,0,120,109,72,69,108,119,0,0,0,0,0,0,120,109,69,72,108,119,0,0,0,0,0,0,120,109,69,69,124,124,0,124,108,119,0,0,0,0,0,0,0,105,112,0,0,0,0,120,109,124,0,124,124,69,108,119,0,0,0,0,0,0,0,105,0,0,0,120,109,69,69,108,119,0,0,0,0,0,0,0,105,0,0,0,0,120,109,69,69,69,0,
0,69,69,108,119,0,0,0,0,0,0,120,109,0,0,108,119,0,0,0,0,0,0,120,109,69,72,108,119,0,0,0,0,0,0,120,109,69,69,124,124,0,124,108,119,0,0,0,0,0,0,0,105,0,0,0,0,0,120,109,124,0,124,124,69,108,119,0,0,0,0,0,0,0,105,0,0,0,120,109,69,69,108,119,0,0,0,0,0,0,0,105,0,0,0,0,120,109,69,69,69,0,
0,69,69,108,119,0,0,0,0,0,0,120,109,72,69,108,119,0,0,0,0,0,0,120,109,69,72,108,119,0,0,0,0,0,0,120,109,69,69,124,124,0,124,108,106,106,106,106,106,106,106,106,107,106,106,106,106,106,106,109,124,0,124,124,69,108,119,0,0,0,0,0,0,0,105,0,0,0,120,109,69,69,108,119,0,0,0,0,0,0,0,105,0,0,0,0,120,109,69,69,69,0,
0,69,69,108,119,0,0,0,0,0,0,120,109,72,69,108,119,0,0,0,0,0,0,120,109,69,72,108,119,0,0,0,0,0,0,120,109,69,69,124,124,0,124,108,119,0,0,0,0,0,0,0,105,0,0,0,0,0,120,109,124,0,124,124,69,108,119,0,0,0,0,0,0,0,105,0,0,0,120,109,69,69,108,119,0,0,0,0,0,0,0,105,0,0,0,0,120,109,69,69,69,0,
0,69,69,108,119,0,0,0,0,0,0,120,109,72,69,108,119,0,0,0,0,0,0,120,109,69,72,108,119,0,0,0,0,0,0,120,109,69,69,124,124,0,124,108,111,111,111,111,111,111,111,111,111,111,111,111,111,111,111,109,124,0,124,124,69,108,119,0,0,0,0,0,0,0,105,0,0,0,120,109,69,69,108,119,0,0,0,0,0,0,0,105,0,0,0,0,120,109,69,69,69,0,
0,69,69,108,111,111,111,111,111,111,111,111,109,72,69,108,111,111,111,111,111,111,111,111,109,69,72,108,111,111,111,111,111,111,111,111,109,69,69,124,124,0,124,124,124,124,124,124,124,124,124,124,124,124,124,124,124,124,124,124,124,0,124,124,69,108,111,111,111,111,111,111,111,111,111,111,111,111,111,109,69,69,108,111,111,111,111,111,111,111,111,111,111,111,111,111,111,109,69,69,69,0,
0,69,69,69,69,69,69,69,69,0,0,0,69,72,69,69,0,0,0,69,69,69,69,69,69,69,72,69,69,69,69,69,69,69,69,69,69,69,69,124,124,0,124,124,124,124,124,124,124,124,124,124,124,124,124,124,124,124,124,124,124,0,124,124,69,72,69,69,69,69,69,69,69,69,69,69,69,69,72,69,69,69,69,69,69,69,69,69,69,69,69,72,69,69,69,69,69,69,69,69,69,0,
0,69,69,69,69,69,69,69,69,69,69,69,69,72,69,69,69,69,69,69,69,69,69,69,69,69,72,69,69,69,69,69,69,69,69,69,69,69,69,124,124,0,124,124,124,124,124,124,124,124,124,124,124,124,124,124,124,124,124,124,124,0,124,124,69,72,69,69,69,69,69,69,69,69,69,69,69,69,72,69,69,69,69,69,69,69,69,69,69,69,69,72,69,69,69,69,69,69,69,69,69,0,
0,70,70,70,70,70,70,70,70,70,70,70,70,70,70,70,70,70,70,70,70,70,70,70,70,70,70,70,70,70,70,70,70,70,70,70,70,70,70,124,124,124,124,124,124,124,124,124,124,124,124,124,124,124,124,124,124,124,124,124,124,124,124,124,70,70,70,70,70,70,70,70,70,70,70,70,70,70,70,70,70,70,70,70,70,70,70,70,70,70,70,70,70,70,70,70,70,70,70,70,70,0,
0,69,69,69,69,69,69,69,69,69,69,69,69,69,69,69,69,69,69,69,69,69,69,69,69,69,69,69,69,69,69,69,69,69,69,69,69,69,69,124,124,124,124,124,124,124,124,124,124,124,124,124,124,124,124,124,124,124,124,124,124,124,124,124,69,69,69,69,69,69,69,69,69,69,69,69,69,69,69,69,69,69,69,69,69,69,69,69,69,69,69,69,69,69,69,69,69,69,69,69,69,0,
0,69,69,69,69,69,69,69,69,69,69,69,69,69,69,69,69,69,69,69,69,69,69,69,69,69,69,69,69,69,69,69,69,69,69,69,69,69,69,124,124,124,124,124,124,124,124,124,124,124,124,124,124,124,124,124,124,124,124,124,124,124,124,124,69,69,69,69,69,69,69,69,69,69,69,69,69,69,69,69,69,69,69,69,69,69,69,69,69,69,69,69,69,69,69,69,69,69,69,69,69,0,
0,0,0,0,0,0,0,0,0,0,0,0,0,0,0,0,0,0,0,0,0,0,0,0,0,0,0,0,0,0,0,0,0,0,0,0,0,0,0,0,0,0,0,0,0,0,0,0,0,0,0,0,0,0,0,0,0,0,0,0,0,0,0,0,0,0,0,0,69,69,69,69,69,69,69,69,69,69,69,69,69,69,69,69,69,69,69,69,69,69,69,69,69,69,69,69,69,0,0,0,0,0,
0,0,0,0,0,0,0,0,0,0,0,0,0,0,0,0,0,0,0,0,0,0,0,0,0,0,0,0,0,0,0,0,0,0,0,0,0,0,0,0,0,0,0,0,0,0,0,0,0,0,0,0,0,0,0,0,0,0,0,0,0,0,0,0,0,0,0,0,69,69,69,69,69,69,69,69,69,69,69,69,69,69,69,69,69,69,69,69,69,69,69,69,69,69,69,69,69,0,0,0,0,0
</data>
 </layer>
 <layer id="5" name="Terrain" width="102" height="38">
  <data encoding="csv">
71,71,71,71,71,71,71,71,71,71,71,71,71,71,71,71,71,71,71,71,71,71,71,71,71,71,71,71,71,71,71,71,71,71,71,71,71,71,71,71,71,71,71,71,71,71,71,71,71,71,71,71,71,71,71,71,71,71,71,71,71,71,71,71,71,71,71,71,71,71,71,71,71,71,71,71,71,71,71,71,71,71,71,71,71,71,71,71,71,71,71,71,71,71,71,71,71,71,71,71,71,71,
67,0,0,0,0,0,0,0,0,0,0,0,0,0,0,0,0,0,0,0,0,0,0,0,0,0,0,0,0,0,0,0,0,0,0,0,0,0,0,0,0,0,0,0,0,0,0,0,0,0,0,0,0,0,0,0,0,0,0,0,0,0,0,0,0,0,0,0,0,0,0,0,0,0,0,0,0,0,0,0,0,0,0,0,0,0,0,0,0,0,0,0,0,0,0,0,0,0,0,0,0,67,
67,0,0,0,0,0,0,0,0,0,0,0,0,0,0,0,0,0,0,0,0,0,0,0,0,0,0,0,0,0,0,0,0,0,0,0,0,0,0,0,0,0,0,0,0,0,0,0,0,0,0,0,0,0,0,0,0,0,0,0,0,0,0,0,0,0,0,0,0,0,0,0,0,0,0,0,0,0,0,0,0,0,0,0,0,0,0,0,0,0,0,0,0,0,0,0,0,0,0,0,0,67,
67,0,0,0,0,0,0,0,0,0,0,0,0,0,0,0,0,0,0,0,0,0,0,0,0,0,0,0,0,0,0,0,0,0,0,0,0,0,0,0,0,0,0,0,0,0,0,0,0,0,0,0,0,0,0,0,0,0,0,0,0,0,0,0,0,0,0,0,0,0,0,0,0,0,0,0,0,0,0,0,0,0,0,0,0,0,0,0,0,0,0,0,0,0,0,0,0,0,0,0,0,67,
67,0,0,0,0,0,0,0,0,0,0,0,0,0,0,0,0,0,0,0,0,0,0,0,0,0,0,0,0,0,0,0,0,0,0,0,0,0,0,0,0,0,0,0,0,0,0,0,0,0,0,0,0,0,0,0,0,0,0,0,0,0,0,0,0,0,0,0,0,0,0,0,0,0,0,0,0,0,0,0,0,0,0,0,0,0,0,0,0,0,0,0,0,0,0,0,0,0,0,0,0,67,
67,0,0,0,0,0,0,0,0,0,0,0,0,0,0,0,0,0,0,0,0,0,0,0,0,0,0,0,0,0,0,0,0,0,0,0,0,0,0,0,0,0,0,0,0,0,0,0,0,0,0,0,0,0,0,0,0,0,0,0,0,0,0,0,0,0,0,0,0,0,0,0,0,0,0,0,0,0,0,0,0,0,0,0,0,0,0,0,0,0,0,0,0,0,0,0,0,0,0,0,0,67,
67,0,0,0,0,0,0,0,0,0,0,0,0,0,0,0,0,0,0,0,0,0,0,0,0,0,0,0,0,0,0,0,0,0,0,0,0,0,0,0,0,0,0,0,0,0,0,0,0,0,0,0,0,0,0,0,0,0,0,0,0,0,0,0,0,0,0,0,0,0,0,0,0,0,0,0,0,0,0,0,0,0,0,0,0,0,0,0,0,0,0,0,0,0,0,0,0,0,0,0,0,67,
67,0,0,0,0,0,0,0,0,0,0,0,0,0,0,0,0,0,0,0,0,0,0,0,0,0,0,0,0,0,0,0,0,0,0,0,0,0,0,0,0,0,0,0,0,0,0,0,0,0,0,0,0,0,0,0,0,0,0,0,0,0,0,0,0,0,0,0,0,0,0,0,0,0,0,0,0,0,0,0,0,0,0,0,0,0,0,0,0,0,0,0,0,0,0,0,0,0,0,0,0,67,
67,0,0,0,0,0,0,0,0,0,0,0,0,0,0,0,0,0,0,0,0,0,0,0,0,0,0,0,0,0,0,0,0,0,0,0,0,0,0,0,0,0,0,0,0,0,0,0,0,0,0,0,0,0,0,0,0,0,0,0,0,0,0,0,0,0,0,0,0,0,0,0,0,0,0,0,0,0,0,0,0,0,0,0,0,0,0,0,0,0,0,0,0,0,0,0,0,0,0,0,0,67,
67,0,0,0,0,0,0,0,0,0,0,0,0,0,0,0,0,0,0,0,0,0,0,0,0,0,0,0,0,0,0,0,0,0,0,0,0,0,0,68,68,0,0,0,0,0,0,0,0,0,0,0,0,0,0,0,0,0,0,0,0,0,68,68,0,0,0,0,0,0,0,0,0,0,0,0,0,0,0,0,0,0,0,0,0,0,0,0,0,0,0,0,0,0,0,0,0,0,0,0,0,67,
67,0,0,0,0,0,0,0,0,0,0,0,0,0,0,0,0,0,0,0,0,0,0,0,0,0,0,0,0,0,0,0,0,0,0,0,0,0,0,0,67,0,0,0,0,0,0,0,0,0,0,0,0,0,0,0,0,0,0,0,0,0,67,0,0,0,0,0,0,0,0,0,0,0,0,0,0,0,0,0,0,0,0,0,0,0,0,0,0,0,0,0,0,0,0,0,0,0,0,0,0,67,
67,0,0,0,0,0,0,0,0,0,0,0,0,0,0,0,0,0,0,0,0,0,0,0,0,0,0,0,0,0,0,0,0,0,0,0,0,0,0,0,67,71,71,71,71,71,71,71,71,71,71,71,71,71,71,71,71,71,71,71,71,71,67,0,0,0,0,0,0,0,0,0,0,0,0,0,0,0,0,0,0,0,0,0,0,0,0,0,0,0,0,0,0,0,0,0,0,0,0,0,0,67,
67,0,0,0,0,0,0,0,0,0,0,0,0,0,0,0,0,0,0,0,0,0,0,0,73,74,74,74,75,0,0,0,0,0,0,0,0,0,0,0,0,67,0,0,0,0,0,0,0,0,0,0,0,0,0,0,0,0,0,0,0,67,0,0,0,0,0,0,0,0,0,0,0,0,0,0,0,0,0,0,0,0,0,0,0,0,0,0,0,0,0,0,0,0,0,0,0,0,0,0,0,67,
67,0,0,0,0,0,0,0,0,0,0,0,0,0,0,0,0,0,0,0,0,0,0,0,67,0,0,0,68,0,0,0,0,0,0,0,0,0,0,0,0,67,0,0,0,0,0,0,0,0,0,0,0,0,0,0,0,0,0,0,0,67,0,0,0,0,0,0,0,0,0,0,0,0,0,0,0,0,0,0,0,0,0,0,0,0,0,0,0,0,0,0,0,0,0,0,0,0,0,0,0,67,
67,0,0,0,0,0,0,0,0,0,0,0,0,0,0,0,0,0,0,0,0,0,0,0,0,0,0,0,67,0,0,0,0,0,0,0,0,0,0,0,0,67,0,0,0,0,0,0,0,0,0,0,0,0,0,0,0,0,0,0,0,67,0,0,0,0,0,0,0,0,0,0,0,0,0,0,0,0,0,0,0,0,0,0,0,0,0,0,0,0,0,0,0,0,0,0,0,0,0,0,0,67,
67,0,0,0,0,0,0,0,0,0,0,0,0,0,0,0,0,0,0,0,0,0,0,0,0,0,0,0,67,0,0,0,0,0,0,0,0,0,0,0,0,67,0,0,0,0,0,0,0,0,0,0,0,0,0,0,0,0,0,0,0,67,0,0,0,0,0,0,0,0,0,0,0,0,0,0,0,0,0,0,0,0,0,0,0,0,0,0,0,0,0,0,0,0,0,0,0,0,0,0,0,67,
67,0,0,0,0,0,0,0,0,0,0,0,73,74,74,74,74,74,74,74,74,74,74,74,74,74,74,74,75,0,0,0,0,0,0,0,0,0,0,0,0,67,0,0,0,0,0,0,0,0,0,0,0,0,0,0,0,0,0,0,0,67,0,0,0,0,0,0,0,0,0,0,0,0,0,0,0,0,0,0,0,0,0,0,0,0,0,0,0,0,0,0,0,0,0,0,0,0,0,0,0,67,
67,0,0,0,0,0,0,0,0,0,0,0,0,0,0,0,0,0,0,0,0,0,0,0,0,0,0,0,0,0,0,0,0,0,0,0,0,0,0,0,0,67,0,0,0,0,0,0,0,0,0,0,0,0,0,0,0,0,0,0,0,67,0,0,0,0,0,0,0,0,0,0,0,0,0,0,0,0,0,0,0,0,0,0,0,0,0,0,0,0,0,0,0,0,0,0,0,0,0,0,0,67,
67,0,0,0,0,0,0,0,0,0,0,0,0,0,0,0,0,0,0,0,0,0,0,0,0,0,0,0,0,0,0,0,0,0,0,0,0,0,0,0,0,67,0,0,0,0,0,0,0,0,0,0,0,0,0,0,0,0,0,0,0,67,0,0,0,0,0,0,0,0,0,0,0,0,0,0,0,0,0,0,0,0,0,0,0,0,0,0,0,0,0,0,0,0,0,0,0,0,0,0,0,67,
67,0,0,0,0,0,0,0,0,0,0,0,0,0,0,0,0,0,0,0,0,0,0,0,0,0,0,0,0,0,0,0,0,0,0,0,0,0,0,0,0,67,0,0,0,0,0,0,0,0,0,0,0,0,0,0,0,0,0,0,0,67,0,0,0,0,0,0,0,0,0,0,0,0,0,0,0,0,0,0,0,0,0,0,0,0,0,0,0,0,0,0,0,0,0,0,0,0,0,0,0,67,
67,0,0,0,0,0,0,0,0,0,0,0,0,0,0,0,0,0,0,0,0,0,0,0,0,0,0,0,0,0,0,0,0,0,0,0,0,0,0,0,0,67,0,0,0,0,0,0,0,0,0,0,0,0,0,0,0,0,0,0,0,67,0,0,0,0,0,0,0,0,0,0,0,0,0,0,0,0,0,0,0,0,0,0,0,0,0,0,0,0,0,0,0,0,0,0,0,0,0,0,0,67,
67,0,0,0,0,0,0,73,74,74,74,75,0,0,0,0,0,0,0,0,0,0,0,0,0,0,0,0,0,0,0,0,0,0,0,0,0,0,0,0,0,67,0,0,0,0,0,0,0,0,0,0,0,0,0,0,0,0,0,0,0,67,0,0,0,0,0,0,0,0,0,0,0,0,0,0,0,0,0,0,0,0,0,0,0,0,0,0,0,0,0,0,0,0,0,0,0,0,0,0,0,67,
67,0,0,0,0,0,0,0,0,0,0,0,0,0,0,0,0,0,0,0,0,0,0,0,0,0,0,0,0,0,0,0,0,0,0,0,0,0,0,0,0,67,0,0,0,0,0,0,0,0,0,0,0,0,0,0,0,0,0,0,0,67,0,0,0,0,0,0,0,0,0,0,0,0,0,0,0,0,0,0,0,0,0,0,0,0,0,0,0,0,0,0,0,0,0,0,0,0,0,0,0,67,
67,0,0,0,0,0,0,0,0,0,0,0,0,0,0,0,0,0,0,0,0,0,0,0,0,0,0,0,0,0,0,0,0,0,0,0,0,0,0,0,0,67,0,0,0,0,0,0,0,0,0,0,0,0,0,0,0,0,0,0,0,67,0,0,0,0,0,0,0,0,0,0,0,0,0,0,0,0,0,0,0,0,0,0,0,0,0,0,0,0,0,0,0,0,0,0,0,0,0,0,0,67,
67,0,0,0,0,0,0,0,0,0,0,0,0,0,0,0,0,0,0,0,0,0,0,0,0,0,0,0,0,0,0,0,0,0,0,0,0,0,0,0,0,67,0,0,0,0,0,0,0,0,0,0,0,0,0,0,0,0,0,0,0,67,0,0,0,0,0,0,0,0,0,0,0,0,0,0,0,0,0,0,0,0,0,0,0,0,0,0,0,0,0,0,0,0,0,0,0,0,0,0,0,67,
67,0,0,0,0,0,0,0,0,0,0,0,0,0,0,0,0,0,0,0,0,0,0,0,0,0,0,0,0,0,0,0,0,0,0,0,0,0,0,0,0,67,0,0,0,0,0,0,0,0,0,0,0,0,0,0,0,0,0,0,0,67,0,0,0,0,0,0,0,0,0,0,0,0,0,0,0,0,0,0,0,0,0,0,0,0,0,0,0,0,0,0,0,0,0,0,0,0,0,0,0,67,
67,0,0,0,0,0,0,0,0,0,0,0,73,74,74,75,0,0,0,0,0,0,0,0,0,0,0,0,0,0,0,0,0,0,0,0,0,0,0,0,0,67,0,0,0,0,0,0,0,0,0,0,0,0,0,0,0,0,0,0,0,67,0,0,0,0,0,0,0,0,0,0,0,0,0,0,0,0,0,0,0,0,0,0,0,0,0,0,0,0,0,0,0,0,0,0,0,0,0,0,0,67,
67,0,0,0,0,0,0,0,0,0,0,0,0,0,0,0,0,0,0,0,0,0,0,0,0,0,0,0,0,0,0,0,0,0,0,0,0,0,0,0,0,67,0,0,0,0,0,0,0,0,0,0,0,0,0,0,0,0,0,0,0,67,0,0,0,0,0,0,0,0,0,0,0,0,0,0,0,0,0,0,0,0,0,0,0,0,0,0,0,0,0,0,0,0,0,0,0,0,0,0,0,67,
67,0,0,0,0,0,0,0,0,0,0,0,0,0,0,0,0,0,0,0,0,0,0,0,0,0,0,0,0,0,0,0,0,0,0,0,0,0,0,0,0,67,0,0,0,0,0,0,0,0,0,0,0,0,0,0,0,0,0,0,0,67,0,0,0,0,0,0,0,0,0,0,0,0,0,0,0,0,0,0,0,0,0,0,0,0,0,0,0,0,0,0,0,0,0,0,0,0,0,0,0,67,
67,0,0,0,0,0,0,0,0,0,0,0,0,0,0,0,0,0,0,0,0,0,0,0,0,0,0,0,0,0,0,0,0,0,0,0,0,0,0,0,0,67,0,0,0,0,0,0,0,0,0,0,0,0,0,0,0,0,0,0,0,67,0,0,0,0,0,0,0,0,0,0,0,0,0,0,0,0,0,0,0,0,0,0,0,0,0,0,0,0,0,0,0,0,0,0,0,0,0,0,0,67,
67,0,0,0,0,0,0,0,0,0,0,0,0,0,0,0,0,0,0,0,0,0,0,0,0,0,0,0,0,0,0,0,0,0,0,0,0,0,0,0,0,67,0,0,0,0,0,0,0,0,0,0,0,0,0,0,0,0,0,0,0,67,0,0,0,0,0,0,0,0,0,0,0,0,0,0,0,0,0,0,0,0,0,0,0,0,0,0,0,0,0,0,0,0,0,0,0,0,0,0,0,67,
67,0,0,0,0,0,0,0,0,73,74,75,0,0,0,0,73,74,75,0,0,0,0,0,0,0,0,0,0,0,0,0,0,0,0,0,0,0,0,0,0,67,0,0,0,0,0,0,0,0,0,0,0,0,0,0,0,0,0,0,0,67,0,0,0,0,0,0,0,0,0,0,0,0,0,0,0,0,0,0,0,0,0,0,0,0,0,0,0,0,0,0,0,0,0,0,0,0,0,0,0,67,
67,0,0,0,0,0,0,0,0,0,0,0,0,0,0,0,0,0,0,0,0,0,0,0,0,0,0,0,0,0,0,0,0,0,0,0,0,0,0,0,0,67,0,0,0,0,0,0,0,0,0,0,0,0,0,0,0,0,0,0,0,67,0,0,0,0,0,0,0,0,0,0,0,0,0,0,0,0,0,0,0,0,0,0,0,0,0,0,0,0,0,0,0,0,0,0,0,0,0,0,0,67,
67,0,0,0,0,0,0,0,0,0,0,0,0,0,0,0,0,0,0,0,0,0,0,0,0,0,0,0,0,0,0,0,0,0,0,0,0,0,0,0,0,0,0,0,0,0,0,0,0,0,0,0,0,0,0,0,0,0,0,0,0,0,0,0,0,0,0,0,0,0,0,0,0,0,0,0,0,0,0,0,0,0,0,0,0,0,0,0,0,0,0,0,0,0,0,0,0,0,0,0,0,67,
67,0,0,0,0,0,0,0,0,0,0,0,0,0,0,0,0,0,0,0,0,0,0,0,0,0,0,0,0,0,0,0,0,0,0,0,0,0,0,0,0,0,0,0,0,0,0,0,0,0,0,0,0,0,0,0,0,0,0,0,0,0,0,0,0,0,0,0,0,0,0,0,0,0,0,0,0,0,0,0,0,0,0,0,0,0,0,0,0,0,0,0,0,0,0,0,0,0,0,0,0,67,
67,0,0,0,0,0,0,0,0,0,0,0,0,0,0,0,0,0,0,0,0,0,0,0,0,0,0,0,0,0,0,0,0,0,0,0,0,0,0,0,0,0,0,0,0,0,0,0,0,0,0,0,0,0,0,0,0,0,0,0,0,0,0,0,0,0,0,0,0,0,0,0,0,0,0,0,0,0,0,0,0,0,0,0,0,0,0,0,0,0,0,0,0,0,0,0,0,0,0,0,0,67,
66,65,65,65,65,65,65,65,65,65,65,65,65,65,65,65,65,65,65,65,65,65,65,65,65,65,65,65,65,65,65,65,65,65,65,65,65,65,65,65,65,65,65,65,65,65,65,65,65,65,65,65,65,65,65,65,65,65,65,65,65,65,65,65,65,65,65,65,0,0,0,0,0,0,0,0,0,0,0,0,0,0,0,0,0,0,0,0,0,0,0,0,0,0,0,0,0,65,65,65,65,66,
66,66,66,66,66,66,66,66,66,66,66,66,66,66,66,66,66,66,66,66,66,66,66,66,66,66,66,66,66,66,66,66,66,66,66,66,66,66,66,66,66,66,66,66,66,66,66,66,66,66,66,66,66,66,66,66,66,66,66,66,66,66,66,66,66,66,66,66,0,0,0,0,0,0,0,0,0,0,0,0,0,0,0,0,0,0,0,0,0,0,0,0,0,0,0,0,0,66,66,66,66,66
</data>
 </layer>
 <layer id="6" name="Terrain_Detail" width="102" height="38">
  <data encoding="csv">
0,0,0,0,0,0,0,0,0,0,114,0,0,0,0,0,0,0,115,0,0,0,0,0,115,0,0,0,0,0,0,0,113,115,0,0,0,114,0,0,0,0,0,0,0,0,0,113,0,0,0,0,113,0,0,0,0,0,0,0,115,0,0,0,0,0,0,0,0,0,113,0,0,0,0,0,0,113,0,0,0,113,0,115,0,0,0,0,114,0,0,0,0,0,0,0,0,0,0,115,0,0,
0,0,0,0,0,0,0,0,0,0,0,0,0,0,0,0,0,0,0,0,0,0,0,0,0,0,0,0,0,0,0,0,0,0,0,0,0,0,0,0,0,0,0,0,0,0,0,0,0,0,0,0,0,0,0,0,0,0,0,0,0,0,0,0,0,0,0,0,0,0,0,0,0,0,0,0,0,0,0,0,0,0,0,0,0,0,0,0,0,0,0,0,0,0,0,0,0,0,0,0,0,114,
0,0,0,0,0,0,0,0,0,0,0,0,0,0,0,0,0,0,0,0,0,0,0,0,0,0,0,0,0,0,0,0,0,0,0,0,0,0,0,0,0,0,0,0,0,0,0,0,0,0,0,0,0,0,0,0,0,0,0,0,0,0,0,0,0,0,0,0,0,0,0,0,0,0,0,0,0,0,0,0,0,0,0,0,0,0,0,0,0,0,0,0,0,0,0,0,0,0,0,0,0,0,
0,0,0,0,0,0,0,0,0,0,0,0,0,0,0,0,0,0,0,0,0,0,0,0,0,0,0,0,0,0,0,0,0,0,0,0,0,0,0,0,0,0,0,0,0,0,0,0,0,0,0,0,0,0,0,0,0,0,0,0,0,0,0,0,0,0,0,0,0,0,0,0,0,0,0,0,0,0,0,0,0,0,0,0,0,0,0,0,0,0,0,0,0,0,0,0,0,0,0,0,0,0,
0,0,0,0,0,0,0,0,0,0,0,0,0,0,0,0,0,0,0,0,0,0,0,0,0,0,0,0,0,0,0,0,0,0,0,0,0,0,0,0,0,0,0,0,0,0,0,0,0,0,0,0,0,0,0,0,0,0,0,0,0,0,0,0,0,0,0,0,0,0,0,0,0,0,0,0,0,0,0,0,0,0,0,0,0,0,0,0,0,0,0,0,0,0,0,0,0,0,0,0,0,0,
0,0,0,0,0,0,0,0,0,0,0,0,0,0,0,0,0,0,0,0,0,0,0,0,0,0,0,0,0,0,0,0,0,0,0,0,0,0,0,0,0,0,0,0,0,0,0,0,0,0,0,0,0,0,0,0,0,0,0,0,0,0,0,0,0,0,0,0,0,0,0,0,0,0,0,0,0,0,0,0,0,0,0,0,0,0,0,0,0,0,0,0,0,0,0,0,0,0,0,0,0,0,
0,0,0,0,0,0,0,0,0,0,0,0,0,0,0,0,0,0,0,0,0,0,0,0,0,0,0,0,0,0,0,0,0,0,0,0,0,0,0,0,0,0,0,0,0,0,0,0,0,0,0,0,0,0,0,0,0,0,0,0,0,0,0,0,0,0,0,0,0,0,0,0,0,0,0,0,0,0,0,0,0,0,0,0,0,0,0,0,0,0,0,0,0,0,0,0,0,0,0,0,0,0,
0,0,0,0,0,0,0,0,0,0,0,0,0,0,0,0,0,0,0,0,0,0,0,0,0,0,0,0,0,0,0,0,0,0,0,0,0,0,0,0,0,0,0,0,0,0,0,0,0,0,0,0,0,0,0,0,0,0,0,0,0,0,0,0,0,0,0,0,0,0,0,0,0,0,0,0,0,0,0,0,0,0,0,0,0,0,0,0,0,0,0,0,0,0,0,0,0,0,0,0,0,0,
115,0,0,0,0,0,0,0,0,0,0,0,0,0,0,0,0,0,0,0,0,0,0,0,0,0,0,0,0,0,0,0,0,0,0,0,0,0,0,0,0,0,0,0,0,0,0,0,0,0,0,0,0,0,0,0,0,0,0,0,0,0,0,0,0,0,0,0,0,0,0,0,0,0,0,0,0,0,0,0,0,0,0,0,0,0,0,0,0,0,0,0,0,0,0,0,0,0,0,0,0,0,
0,0,0,0,0,0,0,0,0,0,0,0,0,0,0,0,0,0,0,0,0,0,0,0,0,0,0,0,0,0,0,0,0,0,0,0,0,0,0,0,0,0,0,0,0,0,0,0,0,0,0,0,0,0,0,0,0,0,0,0,0,0,0,0,0,0,0,0,0,0,0,0,0,0,0,0,0,0,0,0,0,0,0,0,0,0,0,0,0,0,0,0,0,0,0,0,0,0,0,0,0,0,
0,0,0,0,0,0,0,0,0,0,0,0,0,0,0,0,0,0,0,0,0,0,0,0,0,0,0,0,0,0,0,0,0,0,0,0,0,0,0,0,0,0,0,0,0,0,0,0,0,0,0,0,0,0,0,0,0,0,0,0,0,0,0,0,0,0,0,0,0,0,0,0,0,0,0,0,0,0,0,0,0,0,0,0,0,0,0,0,0,0,0,0,0,0,0,0,0,0,0,0,0,0,
0,0,0,0,0,0,0,0,0,0,0,0,0,0,0,0,0,0,0,0,0,0,0,0,0,0,0,0,0,0,0,0,0,0,0,0,0,0,0,0,0,0,0,0,0,0,0,0,0,0,0,0,0,113,0,0,0,0,0,0,113,115,0,0,0,0,0,0,0,0,0,0,0,0,0,0,0,0,0,0,0,0,0,0,0,0,0,0,0,0,0,0,0,0,0,0,0,0,0,0,0,0,
0,0,0,0,0,0,0,0,0,0,0,0,0,0,0,0,0,0,0,0,0,0,0,0,0,0,0,0,0,0,0,0,0,0,0,0,0,0,0,0,0,0,78,0,0,0,0,0,78,0,0,0,0,0,78,0,0,0,0,0,78,0,0,0,0,0,0,0,0,0,0,0,0,0,0,0,0,0,0,0,0,0,0,0,0,0,0,0,0,0,0,0,0,0,0,0,0,0,0,0,0,0,
0,0,0,0,0,0,0,0,0,0,0,0,0,0,0,0,0,0,0,0,0,0,0,0,0,0,0,0,0,0,0,0,0,0,0,0,0,0,0,0,0,0,79,0,0,0,0,0,79,0,0,0,0,0,79,0,0,0,0,0,79,115,0,0,0,0,0,0,0,0,0,0,0,0,0,0,0,0,0,0,0,0,0,0,0,0,0,0,0,0,0,0,0,0,0,0,0,0,0,0,0,0,
0,0,0,0,0,0,0,0,0,0,0,0,0,0,0,0,0,0,0,0,0,0,0,0,0,0,0,0,0,0,0,0,0,0,0,0,0,0,0,0,0,0,79,0,0,0,0,0,79,0,0,0,0,0,79,0,0,0,0,0,79,0,0,0,0,0,0,0,0,0,0,0,0,0,0,0,0,0,0,0,0,0,0,0,0,0,0,0,0,0,0,0,0,0,0,0,0,0,0,0,0,0,
0,0,0,0,0,0,0,0,0,0,0,0,0,0,0,0,0,0,0,0,0,0,0,0,0,0,0,0,0,0,0,0,0,0,0,0,0,0,0,0,0,0,0,0,0,0,0,0,0,0,0,0,0,0,0,0,0,0,0,0,0,0,0,0,0,0,0,0,0,0,0,0,0,0,0,0,0,0,0,0,0,0,0,0,0,0,0,0,0,0,0,0,0,0,0,0,0,0,0,0,0,115,
0,0,0,0,0,0,0,0,0,0,0,0,0,0,0,0,0,0,0,0,0,0,0,0,0,0,0,0,0,0,0,0,0,0,0,0,0,0,0,0,0,0,0,0,0,0,0,0,0,0,0,0,0,0,0,0,0,0,0,0,0,0,0,0,0,0,0,0,0,0,0,0,0,0,0,0,0,0,0,0,0,0,0,0,0,0,0,0,0,0,0,0,0,0,0,0,0,0,0,0,0,0,
0,0,0,0,0,0,0,0,0,0,0,0,0,0,0,0,0,0,0,0,0,0,0,0,0,0,0,0,0,0,0,0,0,0,0,0,0,0,0,0,0,0,0,0,0,0,0,0,0,0,0,0,0,0,0,0,0,0,0,0,0,0,0,0,0,0,0,0,0,0,0,0,0,0,0,0,0,0,0,0,0,0,0,0,0,0,0,0,0,0,0,0,0,0,0,0,0,0,0,0,0,0,
0,0,0,0,0,0,0,0,0,0,0,0,0,0,0,0,0,0,0,0,0,0,0,0,0,0,0,0,0,0,0,0,0,0,0,0,0,0,0,0,0,0,0,0,0,0,0,0,0,0,0,0,0,0,0,0,0,0,0,0,0,0,0,0,0,0,0,0,0,0,0,0,0,0,0,0,0,0,0,0,0,0,0,0,0,0,0,0,0,0,0,0,0,0,0,0,0,0,0,0,0,0,
0,0,0,0,0,0,0,0,0,0,0,0,0,0,0,0,0,0,0,0,0,0,0,0,0,0,0,0,0,0,0,0,0,0,0,0,0,0,0,0,0,0,0,0,0,0,0,0,0,0,0,0,0,0,0,0,0,0,0,0,0,0,0,0,0,0,0,0,0,0,0,0,0,0,0,0,0,0,0,0,0,0,0,0,0,0,0,0,0,0,0,0,0,0,0,0,0,0,0,0,0,0,
0,0,0,0,0,0,0,0,0,0,0,0,0,0,0,0,0,0,0,0,0,0,0,0,0,0,0,0,0,0,0,0,0,0,0,0,0,0,0,0,0,0,0,0,0,0,0,0,0,0,0,0,0,0,0,0,0,0,0,0,0,0,0,0,0,0,0,0,0,0,0,0,0,0,0,0,0,0,0,0,0,0,0,0,0,0,0,0,0,0,0,0,0,0,0,0,0,0,0,0,0,0,
0,0,0,0,0,0,0,0,0,0,0,0,0,0,0,0,0,0,0,0,0,0,0,0,0,0,0,0,0,0,0,0,0,0,0,0,0,0,0,0,0,0,0,0,0,0,0,0,0,0,0,0,0,0,0,0,0,0,0,0,0,0,0,0,0,0,0,0,0,0,0,0,0,0,0,0,0,0,0,0,0,0,0,0,0,0,0,0,0,0,0,0,0,0,0,0,0,0,0,0,0,115,
0,0,0,0,0,0,0,0,0,0,0,0,0,0,0,0,0,0,0,0,0,0,0,0,0,0,0,0,0,0,0,0,0,0,0,0,0,0,0,0,0,0,0,0,0,0,0,0,0,0,0,0,0,0,0,0,0,0,0,0,0,0,0,0,0,0,0,0,0,0,0,0,0,0,0,0,0,0,0,0,0,0,0,0,0,0,0,0,0,0,0,0,0,0,0,0,0,0,0,0,0,0,
0,0,0,0,0,0,0,0,0,0,0,0,0,0,0,0,0,0,0,0,0,0,0,0,0,0,0,0,0,0,0,0,0,0,0,0,0,0,0,0,0,115,0,0,0,0,0,0,0,0,0,0,0,0,0,0,0,0,0,0,0,0,0,0,0,0,0,0,0,0,0,0,0,0,0,0,0,0,0,0,0,0,0,0,0,0,0,0,0,0,0,0,0,0,0,0,0,0,0,0,0,0,
115,0,0,0,0,0,0,0,0,0,0,0,0,0,0,0,0,0,0,0,0,0,0,0,0,0,0,0,0,0,0,0,0,0,0,0,0,0,0,0,0,0,0,0,0,0,0,0,0,0,0,0,0,0,0,0,0,0,0,0,0,0,0,0,0,0,0,0,0,0,0,0,0,0,0,0,0,0,0,0,0,0,0,0,0,0,0,0,0,0,0,0,0,0,0,0,0,0,0,0,0,0,
0,0,0,0,0,0,0,0,0,0,0,0,0,0,0,0,0,0,0,0,0,0,0,0,0,0,0,0,0,0,0,0,0,0,0,0,0,0,0,0,0,0,0,0,0,0,0,0,0,0,0,0,0,0,0,0,0,0,0,0,0,0,0,0,0,0,0,0,0,0,0,0,0,0,0,0,0,0,0,0,0,0,0,0,0,0,0,0,0,0,0,0,0,0,0,0,0,0,0,0,0,0,
0,0,0,0,0,0,0,0,0,0,0,0,0,0,0,0,0,0,0,0,0,0,0,0,0,0,0,0,0,0,0,0,0,0,0,0,0,0,0,0,0,0,0,0,0,0,0,0,0,0,0,0,0,0,0,0,0,0,0,0,0,0,0,0,0,0,0,0,0,0,0,0,0,0,0,0,0,0,0,0,0,0,0,0,0,0,0,0,0,0,0,0,0,0,0,0,0,0,0,0,0,0,
0,0,0,0,0,0,0,0,0,0,0,0,0,0,0,0,0,0,0,0,0,0,0,0,0,0,0,0,0,0,0,0,0,0,0,0,0,0,0,0,0,0,0,0,0,0,0,0,0,0,0,0,0,0,0,0,0,0,0,0,0,0,0,0,0,0,0,0,0,0,0,0,0,0,0,0,0,0,0,0,0,0,0,0,0,0,0,0,0,0,0,0,0,0,0,0,0,0,0,0,0,0,
0,0,0,0,0,0,0,0,0,0,0,0,0,0,0,0,0,0,0,0,0,0,0,0,0,0,0,0,0,0,0,0,0,0,0,0,0,0,0,0,0,0,0,0,0,0,0,0,0,0,0,0,0,0,0,0,0,0,0,0,0,0,0,0,0,0,0,0,0,0,0,0,0,0,0,0,0,0,0,0,0,0,0,0,0,0,0,0,0,0,0,0,0,0,0,0,0,0,0,0,0,0,
0,0,0,0,0,0,0,0,0,0,0,0,0,0,0,0,0,0,0,0,0,0,0,0,0,0,0,0,0,0,0,0,0,0,0,0,0,0,0,0,0,0,0,0,0,0,0,0,0,0,0,0,0,0,0,0,0,0,0,0,0,0,0,0,0,0,0,0,0,0,0,0,0,0,0,0,0,0,0,0,0,0,0,0,0,0,0,0,0,0,0,0,0,0,0,0,0,0,0,0,0,0,
0,0,0,0,0,0,0,0,0,0,0,0,0,0,0,0,0,0,0,0,0,0,0,0,0,0,0,0,0,0,0,0,0,0,0,0,0,0,0,0,0,0,0,0,0,0,0,0,0,0,0,0,0,0,0,0,0,0,0,0,0,0,0,0,0,0,0,0,0,0,0,0,0,0,0,0,0,0,0,0,0,0,0,0,0,0,0,0,0,0,0,0,0,0,0,0,0,0,0,0,0,113,
0,0,0,0,0,0,0,0,0,0,0,0,0,0,0,0,0,0,0,0,0,0,0,0,0,0,0,0,0,0,0,0,0,0,0,0,0,0,0,0,0,0,0,0,0,0,0,0,0,0,0,0,0,0,0,0,0,0,0,0,0,0,0,0,0,0,0,0,0,0,0,0,0,0,0,0,0,0,0,0,0,0,0,0,0,0,0,0,0,0,0,0,0,0,0,0,0,0,0,0,0,0,
0,0,0,0,0,0,0,0,0,0,0,0,0,0,0,0,0,0,0,0,0,0,0,0,0,0,0,0,0,0,0,0,0,0,0,0,0,0,0,0,0,0,0,0,0,0,0,0,0,0,0,0,0,0,0,0,0,0,0,0,0,0,0,0,0,0,0,0,0,0,0,0,0,0,0,0,0,0,0,0,0,0,0,0,0,0,0,0,0,0,0,0,0,0,0,0,0,0,0,0,0,115,
0,0,0,0,0,0,0,0,0,0,0,0,0,0,0,0,0,0,0,0,0,0,0,0,0,0,0,0,0,0,0,0,0,0,0,0,0,0,0,0,0,0,0,0,0,0,0,0,0,0,0,0,0,0,0,0,0,0,0,0,0,0,0,0,0,0,0,0,0,0,0,0,0,0,0,0,0,0,0,0,0,0,0,0,0,0,0,0,0,0,0,0,0,0,0,0,0,0,0,0,0,115,
0,0,0,0,0,0,0,0,0,0,0,0,0,0,0,0,0,0,0,0,0,0,0,0,0,0,0,0,0,0,0,0,0,0,0,0,0,0,0,0,0,0,0,0,0,0,0,0,0,0,0,0,0,0,0,0,0,0,0,0,0,0,0,0,0,0,0,0,0,0,0,0,0,0,0,0,0,0,0,0,0,0,0,0,0,0,0,0,0,0,0,0,0,0,0,0,0,0,0,0,0,0,
114,0,0,80,80,80,80,80,80,80,80,80,80,0,0,80,80,80,80,80,80,80,80,80,80,0,0,80,80,80,80,80,80,80,80,80,80,0,0,0,0,0,0,80,80,80,80,80,80,80,80,80,80,80,80,80,80,80,80,80,0,0,0,0,0,80,80,80,0,0,0,0,121,0,0,0,0,0,0,0,0,0,0,0,0,0,0,0,0,0,0,0,0,0,0,0,0,80,0,0,0,0,
0,0,0,0,0,0,0,0,0,0,0,0,0,0,0,0,0,0,0,0,0,0,0,0,0,0,0,0,0,0,0,0,0,0,0,0,0,0,0,0,0,0,0,0,0,0,0,0,0,0,0,0,0,0,0,0,0,0,0,0,0,0,0,0,0,0,0,0,0,0,0,0,0,0,0,0,0,0,0,0,0,0,0,0,0,0,0,0,0,0,0,0,0,0,0,0,0,0,0,0,0,0,
0,0,0,0,0,0,0,0,0,0,0,0,0,0,0,0,0,0,0,0,0,0,0,0,0,0,0,0,0,0,0,0,0,0,0,0,0,0,0,0,0,0,0,0,0,0,0,0,0,0,0,0,0,0,0,0,0,0,0,0,0,0,0,0,0,0,0,0,0,0,0,0,0,0,0,0,0,0,0,0,0,0,0,0,0,0,0,0,0,0,0,0,0,0,0,0,0,0,0,0,0,0
</data>
 </layer>
 <layer id="10" name="FG_Overlay" width="102" height="38">
  <data encoding="csv">
0,0,0,0,0,0,0,0,0,0,0,0,0,0,0,0,0,0,0,0,0,0,0,0,0,0,0,0,0,0,0,0,0,0,0,0,0,0,0,0,0,0,0,0,0,0,0,0,0,0,0,0,0,0,0,0,0,0,0,0,0,0,0,0,0,0,0,0,0,0,0,0,0,0,0,0,0,0,0,0,0,0,0,0,0,0,0,0,0,0,0,0,0,0,0,0,0,0,0,0,0,0,
0,78,78,78,78,78,78,78,78,78,78,78,78,78,78,78,78,78,78,78,78,78,78,78,78,78,78,78,78,78,78,78,78,78,78,78,78,78,78,78,78,78,78,78,78,78,78,78,78,78,78,78,78,78,78,78,78,78,78,78,78,78,78,78,78,78,78,78,78,78,78,78,78,78,78,78,78,78,78,78,78,78,78,78,78,78,78,78,78,78,78,78,78,78,78,78,78,78,78,78,78,0,
0,0,0,0,0,0,79,0,0,0,0,0,0,0,0,0,0,0,0,0,0,0,0,79,0,0,0,0,0,0,0,0,0,0,0,0,0,0,0,0,79,0,0,0,0,0,0,0,0,0,0,0,0,0,0,0,0,79,0,0,0,0,0,0,0,0,0,0,0,0,72,0,0,0,79,0,0,0,0,0,0,0,0,0,0,0,72,0,0,0,0,79,0,0,0,0,0,0,0,0,0,0,
0,0,0,0,0,0,79,0,0,0,0,0,0,0,0,0,0,0,0,0,0,0,0,79,0,0,0,0,0,0,0,0,0,0,0,0,0,0,0,0,79,0,0,0,0,0,0,0,0,0,0,0,0,0,0,0,0,79,0,0,0,0,0,0,0,0,0,0,0,0,72,0,0,0,79,0,0,0,0,0,0,0,0,0,0,0,72,0,0,0,0,79,0,0,0,0,0,0,0,0,0,0,
0,0,0,0,0,0,0,0,0,0,0,0,0,0,0,0,0,0,0,0,0,0,0,0,0,0,0,0,0,0,0,0,0,0,0,0,0,0,0,0,0,0,0,0,0,0,0,0,0,0,0,0,0,0,0,0,0,0,0,0,0,0,0,0,0,0,0,0,0,0,72,0,0,0,0,0,0,0,0,0,0,0,0,0,0,0,72,0,0,0,0,0,0,0,0,0,0,0,0,0,0,0,
0,0,0,0,0,0,0,0,0,0,0,0,0,0,0,0,0,0,0,0,0,0,0,0,0,0,0,0,0,0,0,0,0,0,0,0,0,0,0,0,0,0,0,0,0,0,0,0,0,0,0,0,0,0,0,0,0,0,0,0,0,0,0,0,0,0,0,0,0,0,72,0,0,0,0,0,0,0,0,0,0,0,0,0,0,0,72,0,0,0,0,0,0,0,0,0,0,0,0,0,0,0,
0,0,0,0,0,0,0,0,0,0,0,0,0,0,0,0,0,0,0,0,0,0,0,0,0,0,0,0,0,0,0,0,0,0,0,0,0,0,0,0,0,0,0,0,0,0,0,0,0,0,0,0,0,0,0,0,0,0,0,0,0,0,0,0,0,0,0,0,0,0,72,0,0,0,0,0,0,0,0,0,0,0,0,0,0,0,72,0,0,0,0,0,0,0,0,0,0,0,0,0,0,0,
0,0,0,0,0,0,0,0,0,0,0,0,0,0,0,0,0,0,0,0,0,0,0,0,0,0,0,0,0,0,0,0,0,0,0,0,0,0,0,0,0,0,0,0,0,0,0,0,0,0,0,0,0,0,0,0,0,0,0,0,0,0,0,0,0,0,0,0,0,0,72,0,0,0,0,0,0,0,0,0,0,0,0,0,0,0,72,0,0,0,0,0,0,0,0,0,0,0,0,0,0,0,
0,0,0,0,0,0,0,0,0,0,0,0,0,0,0,0,0,0,0,0,0,0,0,0,0,0,0,0,0,0,0,0,0,0,0,0,0,0,0,0,0,0,0,0,0,0,0,0,0,0,0,0,0,0,0,0,0,0,0,0,0,0,0,0,0,0,0,0,0,0,72,0,0,0,0,0,0,0,0,0,0,0,0,0,0,0,72,0,0,0,0,0,0,0,0,0,0,0,0,0,0,0,
0,0,0,0,0,0,0,0,0,0,0,0,0,0,0,0,0,0,0,0,0,0,0,0,0,0,0,0,0,0,0,0,0,0,0,0,0,0,0,0,0,0,0,0,0,0,0,0,0,0,0,0,0,0,0,0,0,0,0,0,0,0,0,0,0,0,0,0,0,0,72,0,0,0,0,0,0,0,0,0,0,0,0,0,0,0,72,0,0,0,0,0,0,0,0,0,0,0,0,0,0,0,
0,0,0,0,0,0,0,0,0,0,0,0,0,0,0,0,0,0,0,0,0,0,0,0,0,0,0,0,0,0,0,0,0,0,0,0,0,0,0,0,0,0,0,0,0,0,0,0,0,0,0,0,0,0,0,0,0,0,0,0,0,0,0,0,0,0,0,0,0,0,72,0,0,0,0,0,0,0,0,0,0,0,0,0,0,0,72,0,0,0,0,0,0,0,0,0,0,0,0,0,0,0,
0,0,0,0,0,0,0,0,0,0,0,0,0,0,0,0,0,0,0,0,0,0,0,0,0,0,0,0,0,0,0,0,0,0,0,0,0,0,0,0,0,0,0,0,0,0,0,0,0,0,0,0,0,0,0,0,0,0,0,0,0,0,0,0,0,0,0,0,0,0,72,0,0,0,0,0,0,0,0,0,0,0,0,0,0,0,72,0,0,0,0,0,0,0,0,0,0,0,0,0,0,0,
0,0,0,0,0,0,0,0,0,0,0,0,0,0,0,0,0,0,0,0,0,0,0,0,0,0,0,0,0,0,0,0,0,0,0,0,0,0,0,0,0,0,0,0,0,0,0,0,0,0,0,0,0,0,0,0,0,0,0,0,0,0,0,0,0,0,0,0,0,0,72,0,0,0,0,0,0,0,0,0,0,0,0,0,0,0,72,0,0,0,0,0,0,0,0,0,0,0,0,0,0,0,
0,0,0,0,0,0,0,0,0,0,0,0,0,0,0,0,0,0,0,0,0,0,0,0,0,0,0,0,0,0,0,0,0,0,0,0,0,0,0,0,0,0,0,0,0,0,0,0,0,0,0,0,0,0,0,0,0,0,0,0,0,0,0,0,0,0,0,0,0,0,72,0,0,0,0,0,0,0,0,0,0,0,0,0,0,0,72,0,0,0,0,0,0,0,0,0,0,0,0,0,0,0,
0,0,0,0,0,0,0,0,0,0,0,0,0,0,0,0,0,0,0,0,0,0,0,0,0,0,0,0,0,0,0,0,0,0,0,0,0,0,0,0,0,0,0,0,0,0,0,0,0,0,0,0,0,0,0,0,0,0,0,0,0,0,0,0,0,0,0,0,0,0,72,0,0,0,0,0,0,0,0,0,0,0,0,0,0,0,72,0,0,0,0,0,0,0,0,0,0,0,0,0,0,0,
0,0,0,0,0,0,0,0,0,0,0,0,0,0,0,0,0,0,0,0,0,0,0,0,0,0,0,0,0,0,0,0,0,0,0,0,0,0,0,0,0,0,0,0,0,0,0,0,0,0,0,0,0,0,0,0,0,0,0,0,0,0,0,0,0,0,0,0,0,0,72,0,0,0,0,0,0,0,0,0,0,0,0,0,0,0,72,0,0,0,0,0,0,0,0,0,0,0,0,0,0,0,
0,0,0,0,0,0,0,0,0,0,0,0,0,0,0,0,0,0,0,0,0,0,0,0,0,0,0,0,0,0,0,0,0,0,0,0,0,0,0,0,0,0,0,0,0,0,0,0,0,0,0,0,0,0,0,0,0,0,0,0,0,0,0,0,0,0,0,0,0,0,72,0,0,0,0,0,0,0,0,0,0,0,0,0,0,0,72,0,0,0,0,0,0,0,0,0,0,0,0,0,0,0,
0,0,0,0,0,0,0,0,0,0,0,0,0,0,0,0,0,0,0,0,0,0,0,0,0,0,0,0,0,0,0,0,0,0,0,0,0,0,0,0,0,0,0,0,0,0,0,0,0,0,0,0,0,0,0,0,0,0,0,0,0,0,0,0,0,0,0,0,0,0,72,0,0,0,0,0,0,0,0,0,0,0,0,0,0,0,72,0,0,0,0,0,0,0,0,0,0,0,0,0,0,0,
0,0,0,0,0,0,0,0,0,0,0,0,0,0,0,0,0,0,0,0,0,0,0,0,0,0,0,0,0,0,0,0,0,0,0,0,0,0,0,0,0,0,0,0,0,0,0,0,0,0,0,0,0,0,0,0,0,0,0,0,0,0,0,0,0,0,0,0,0,0,72,0,0,0,0,0,0,0,0,0,0,0,0,0,0,0,72,0,0,0,0,0,0,0,0,0,0,0,0,0,0,0,
0,0,0,0,0,0,0,0,0,0,0,0,0,0,0,0,0,0,0,0,0,0,0,0,0,0,0,0,0,0,0,0,0,0,0,0,0,0,0,0,0,0,0,0,0,0,0,0,0,0,0,0,0,0,0,0,0,0,0,0,0,0,0,0,0,0,0,0,0,0,72,0,0,0,0,0,0,0,0,0,0,0,0,0,0,0,72,0,0,0,0,0,0,0,0,0,0,0,0,0,0,0,
0,0,0,0,0,0,0,0,0,0,0,0,0,0,0,0,0,0,0,0,0,0,0,0,0,0,0,0,0,0,0,0,0,0,0,0,0,0,0,0,0,0,0,0,0,0,0,0,0,0,0,0,0,0,0,0,0,0,0,0,0,0,0,0,0,0,0,0,0,0,72,0,0,0,0,0,0,0,0,0,0,0,0,0,0,0,72,0,0,0,0,0,0,0,0,0,0,0,0,0,0,0,
0,0,0,0,0,0,0,0,0,0,0,0,0,0,0,0,0,0,0,0,0,0,0,0,0,0,0,0,0,0,0,0,0,0,0,0,0,0,0,0,0,0,0,0,0,0,0,0,0,0,0,0,0,0,0,0,0,0,0,0,0,0,0,0,0,0,0,0,0,0,72,0,0,0,0,0,0,0,0,0,0,0,0,0,0,0,72,0,0,0,0,0,0,0,0,0,0,0,0,0,0,0,
0,0,0,0,0,0,0,0,0,0,0,0,0,0,0,0,0,0,0,0,0,0,0,0,0,0,0,0,0,0,0,0,0,0,0,0,0,0,0,0,0,0,0,0,0,0,0,0,0,0,0,0,0,0,0,0,0,0,0,0,0,0,0,0,0,0,0,0,0,0,72,0,0,0,0,0,0,0,0,0,0,0,0,0,0,0,72,0,0,0,0,0,0,0,0,0,0,0,0,0,0,0,
0,0,0,0,0,0,0,0,0,0,0,0,0,0,0,0,0,0,0,0,0,0,0,0,0,0,0,0,0,0,0,0,0,0,0,0,0,0,0,0,0,0,0,0,0,0,0,0,0,0,0,0,0,0,0,0,0,0,0,0,0,0,0,0,0,0,0,0,0,0,72,0,0,0,0,0,0,0,0,0,0,0,0,0,0,0,72,0,0,0,0,0,0,0,0,0,0,0,0,0,0,0,
0,0,0,0,0,0,0,0,0,0,0,0,0,0,0,0,0,0,0,0,0,0,0,0,0,0,0,0,0,0,0,0,0,0,0,0,0,0,0,0,0,0,0,0,0,0,0,0,0,0,0,0,0,0,0,0,0,0,0,0,0,0,0,0,0,0,0,0,0,0,72,0,0,0,0,0,0,0,0,0,0,0,0,0,0,0,72,0,0,0,0,0,0,0,0,0,0,0,0,0,0,0,
0,0,0,0,0,0,0,0,0,0,0,0,0,0,0,0,0,0,0,0,0,0,0,0,0,0,0,0,0,0,0,0,0,0,0,0,0,0,0,0,0,0,0,0,0,0,0,0,0,0,0,0,0,0,0,0,0,0,0,0,0,0,0,0,0,0,0,0,0,0,72,0,0,0,0,0,0,0,0,0,0,0,0,0,0,0,72,0,0,0,0,0,0,0,0,0,0,0,0,0,0,0,
0,0,0,0,0,0,0,0,0,0,0,0,0,0,0,0,0,0,0,0,0,0,0,0,0,0,0,0,0,0,0,0,0,0,0,0,0,0,0,0,0,0,0,0,0,0,0,0,0,0,0,0,0,0,0,0,0,0,0,0,0,0,0,0,0,0,0,0,0,0,72,0,0,0,0,0,0,0,0,0,0,0,0,0,0,0,72,0,0,0,0,0,0,0,0,0,0,0,0,0,0,0,
0,0,0,0,0,0,0,0,0,0,0,0,0,0,0,0,0,0,0,0,0,0,0,0,0,0,0,0,0,0,0,0,0,0,0,0,0,0,0,0,0,0,0,0,0,0,0,0,0,0,0,0,0,0,0,0,0,0,0,0,0,0,0,0,0,0,0,0,0,0,72,0,0,0,0,0,0,0,0,0,0,0,0,0,0,0,72,0,0,0,0,0,0,0,0,0,0,0,0,0,0,0,
0,0,0,0,0,0,0,0,0,0,0,0,0,0,0,0,0,0,0,0,0,0,0,0,0,0,0,0,0,0,0,0,0,0,0,0,0,0,0,0,0,0,0,0,0,0,0,0,0,0,0,0,0,0,0,0,0,0,0,0,0,0,0,0,0,0,0,0,0,0,72,0,0,0,0,0,0,0,0,0,0,0,0,0,0,0,72,0,0,0,0,0,0,0,0,0,0,0,0,0,0,0,
0,0,0,0,0,0,0,0,0,0,0,0,0,0,0,0,0,0,0,0,0,0,0,0,0,0,0,0,0,0,0,0,0,0,0,0,0,0,0,0,0,0,0,0,0,0,0,0,0,0,0,0,0,0,0,0,0,0,0,0,0,0,0,0,0,0,0,0,0,0,72,0,0,0,0,0,0,0,0,0,0,0,0,0,0,0,72,0,0,0,0,0,0,0,0,0,0,0,0,0,0,0,
0,0,0,0,0,0,0,0,0,0,0,0,0,0,0,0,0,0,0,0,0,0,0,0,0,0,0,0,0,0,0,0,0,0,0,0,0,0,0,0,0,0,0,0,0,0,0,0,0,0,0,0,0,0,0,0,0,0,0,0,0,0,0,0,0,0,0,0,0,0,72,0,0,0,0,0,0,0,0,0,0,0,0,0,0,0,72,0,0,0,0,0,0,0,0,0,0,0,0,0,0,0,
0,0,0,0,0,0,0,0,0,0,0,0,0,0,0,0,0,0,0,0,0,0,0,0,0,0,0,0,0,0,0,0,0,0,0,0,0,0,0,0,0,0,0,0,0,0,0,0,0,0,0,0,0,0,0,0,0,0,0,0,0,0,0,0,0,0,0,0,0,0,72,0,0,0,0,0,0,0,0,0,0,0,0,0,0,0,72,0,0,0,0,0,0,0,0,0,0,0,0,0,0,0,
0,0,0,0,0,0,0,0,0,0,0,0,0,0,0,0,0,0,0,0,0,0,0,0,0,0,0,0,0,0,0,0,0,0,0,0,0,0,0,0,0,0,0,0,0,0,0,0,0,0,0,0,0,0,0,0,0,0,0,0,0,0,0,0,0,0,0,0,0,0,72,0,0,0,0,0,0,0,0,0,0,0,0,0,0,0,72,0,0,0,0,0,0,0,0,0,0,0,0,0,0,0,
0,0,0,0,0,0,0,0,0,0,0,0,0,0,0,0,0,0,0,0,0,0,0,0,0,0,0,0,0,0,0,0,0,0,0,0,0,0,0,0,0,0,0,0,0,0,0,0,0,0,0,0,0,0,0,0,0,0,0,0,0,0,0,0,0,0,0,0,0,0,72,0,0,0,0,0,0,0,0,0,0,0,0,0,0,0,72,0,0,0,0,0,0,0,0,0,0,0,0,0,0,0,
0,0,0,0,0,0,0,0,0,0,0,0,0,0,0,0,0,0,0,0,0,0,0,0,0,0,0,0,0,0,0,0,0,0,0,0,0,0,0,0,0,0,0,0,0,0,0,0,0,0,0,0,0,0,0,0,0,0,0,0,0,0,0,0,0,0,0,0,0,0,72,0,0,0,0,0,0,0,0,0,0,0,0,0,0,0,72,0,0,0,0,0,0,0,0,0,0,0,0,0,0,0,
0,0,0,0,0,0,0,0,0,0,0,0,0,0,0,0,0,0,0,0,0,0,0,0,0,0,0,0,0,0,0,0,0,0,0,0,0,0,0,0,0,0,0,0,0,0,0,0,0,0,0,0,0,0,0,0,0,0,0,0,0,0,0,0,0,0,0,0,0,0,72,0,0,0,0,0,0,0,0,0,0,0,0,0,0,0,72,0,0,0,0,0,0,0,0,0,0,0,0,0,0,0,
0,0,0,0,0,0,0,0,0,0,0,0,0,0,0,0,0,0,0,0,0,0,0,0,0,0,0,0,0,0,0,0,0,0,0,0,0,0,0,0,0,0,0,0,0,0,0,0,0,0,0,0,0,0,0,0,0,0,0,0,0,0,0,0,0,0,0,0,0,0,0,0,0,0,0,0,0,0,0,0,0,0,0,0,0,0,0,0,0,0,0,0,0,0,0,0,0,0,0,0,0,0,
0,0,0,0,0,0,0,0,0,0,0,0,0,0,0,0,0,0,0,0,0,0,0,0,0,0,0,0,0,0,0,0,0,0,0,0,0,0,0,0,0,0,0,0,0,0,0,0,0,0,0,0,0,0,0,0,0,0,0,0,0,0,0,0,0,0,0,0,0,0,0,0,0,0,0,0,0,0,0,0,0,0,0,0,0,0,0,0,0,0,0,0,0,0,0,0,0,0,0,0,0,0
</data>
 </layer>
 <objectgroup id="7" name="Objects">
  <object id="1" name="PlayerSpawn_01" type="PlayerSpawn" x="24" y="574">
   <point />
  </object>
  <object id="2" name="Flying_01" type="Flying" x="586.333" y="526.667">
   <properties>
    <property name="flight_mode" value="sine" />
    <property name="flight_speed" type="int" value="30" />
   </properties>
   <point />
  </object>
  <object id="3" name="Flying_02" type="Flying" x="368.667" y="218.333">
   <properties>
    <property name="flight_mode" value="bezier" />
    <property name="flight_speed" type="int" value="30" />
   </properties>
   <point />
  </object>
  <object id="10" name="Flying_03" type="Flying" x="1154" y="535">
   <properties>
    <property name="flight_mode" value="bezier" />
    <property name="flight_speed" type="int" value="90" />
   </properties>
   <point />
  </object>
  <object id="8" name="BossSpawn_01" type="BossGavilan" x="824" y="336">
   <point />
  </object>
  <object id="17" name="CameraLock_01" type="CameraLock" x="656" y="192" width="336" height="416">
   <properties>
    <property name="lock_x" value="true" />
    <property name="lock_y" value="true" />
   </properties>
  </object>
 <object id="38" name="DeathPit" type="DeathPit" x="1088" y="582" width="464" height="26" />
  <object id="44" name="Checkpoint_SalaJefe" type="Checkpoint" x="624" y="544" width="24" height="32"><properties><property name="checkpoint_id" type="int" value="1" /></properties></object><object id="45" name="Checkpoint_AntesAbismo" type="Checkpoint" x="1040" y="544" width="24" height="32"><properties><property name="checkpoint_id" type="int" value="2" /></properties></object></objectgroup>
 <objectgroup id="12" name="Design_Notes">
  <object id="6" name="Egg_01" x="424.833" y="255">
   <point />
  </object>
  <object id="7" name="GuardianSpawn_01" x="291" y="238">
   <point />
  </object>
  <object id="9" name="Nest_01" x="824" y="560">
   <point />
  </object>
  <object id="11" name="KeyPedestal_01" x="1592" y="569">
   <point />
  </object>
 </objectgroup>
 <objectgroup id="8" name="Collision">
  <object id="15" name="DoorZone1_01" x="391.439" y="223.273" width="8" height="33" />
  <object id="20" name="FakeCeiling_01" x="656" y="208" width="336" height="16" />
  <object id="21" name="Suelo" x="0" y="576" width="1088" height="32" />
  <object id="24" name="Plataforma" x="384" y="192" width="80" height="16" />
  <object id="25" name="Plataforma" x="144" y="496" width="48" height="16" />
  <object id="26" name="Plataforma" x="256" y="496" width="48" height="16" />
  <object id="27" name="Plataforma" x="448" y="208" width="16" height="48" />
  <object id="28" name="Plataforma" x="192" y="416" width="64" height="16" />
  <object id="29" name="Plataforma" x="112" y="336" width="80" height="16" />
  <object id="30" name="Plataforma" x="192" y="256" width="272" height="16" />
  <object id="31" name="Pared" x="656" y="192" width="16" height="336" />
  <object id="32" name="Pared" x="976" y="192" width="16" height="336" />
  <object id="33" name="Pared" x="0" y="0" width="16" height="608" />
  <object id="34" name="Pared" x="1616" y="0" width="16" height="608" />
  <object id="35" name="Techo" x="0" y="0" width="1632" height="16" />
  <object id="36" name="Suelo" x="1552" y="576" width="80" height="32" />
  <object id="37" name="Techo" x="656" y="176" width="336" height="16" />
  <object id="39" name="Pared" x="640" y="144" width="16" height="48" />
  <object id="40" name="Pared" x="992" y="144" width="16" height="48" />
  <object id="41" name="Pared" x="1008" y="144" width="16" height="16" />
  <object id="42" name="Pared" x="624" y="144" width="16" height="16" />
  <object id="43" name="Pared" x="384" y="208" width="16" height="16" />
 </objectgroup>
</map>